;FLAVOR:Marlin
;TIME:6440
;Filament used: 6.62028m
;Layer height: 0.3
;MINX:29.967
;MINY:46.14
;MINZ:0.2
;MAXX:239.858
;MAXY:215.607
;MAXZ:11.9
;Generated with Cura_SteamEngine 4.5.0
M140 S90
M105
M190 S90
M104 S240
M105
M109 S240
M82 ;absolute extrusion mode
M201 X500.00 Y500.00 Z100.00 E5000.00 ;Setup machine max acceleration
M203 X500.00 Y500.00 Z10.00 E50.00 ;Setup machine max feedrate
M204 P500.00 R1000.00 T500.00 ;Setup Print/Retract/Travel acceleration
M205 X8.00 Y8.00 Z0.40 E5.00 ;Setup Jerk
M220 S100 ;Reset Feedrate
M221 S100 ;Reset Flowrate

G28 ;Home

G92 E0 ;Reset Extruder
G1 Z2.0 F3000 ;Move Z Axis up
G1 X10.1 Y20 Z0.28 F5000.0 ;Move to start position
G1 X10.1 Y200.0 Z0.28 F1500.0 E15 ;Draw the first line
G1 X10.4 Y200.0 Z0.28 F5000.0 ;Move to side a little
G1 X10.4 Y20 Z0.28 F1500.0 E30 ;Draw the second line
G92 E0 ;Reset Extruder
G1 Z2.0 F3000 ;Move Z Axis up

G92 E0
G92 E0
G1 F2700 E-5
;LAYER_COUNT:40
;LAYER:0
M107
G0 F6000 X40.437 Y49.007 Z0.2
;TYPE:SKIRT
G1 F2700 E0
G1 F900 X41.169 Y48.42 E0.03121
G1 X41.948 Y47.897 E0.06242
G1 X42.814 Y47.42 E0.0953
G1 X43.041 Y47.308 E0.10372
G1 X43.899 Y46.93 E0.1349
G1 X44.786 Y46.625 E0.1661
G1 X45.696 Y46.398 E0.19729
G1 X46.622 Y46.248 E0.22849
G1 X47.366 Y46.186 E0.25332
G1 X48.015 Y46.154 E0.27494
G1 X49.059 Y46.152 E0.30966
G1 X49.628 Y46.178 E0.3286
G1 X50.562 Y46.261 E0.35979
G1 X51.486 Y46.423 E0.39099
G1 X52.531 Y46.707 E0.42701
G1 X52.832 Y46.805 E0.43754
G1 X53.711 Y47.134 E0.46876
G1 X54.8 Y47.667 E0.50908
G1 X54.984 Y47.77 E0.5161
G1 X55.782 Y48.262 E0.54728
G1 X56.535 Y48.821 E0.57847
G1 X57.238 Y49.442 E0.60967
G1 X57.886 Y50.12 E0.64086
G1 X58.473 Y50.852 E0.67207
G1 X58.918 Y51.504 E0.69832
G1 X59.815 Y52.928 E0.7543
G1 X61.215 Y55.061 E0.83916
G1 X62.64 Y57.103 E0.92198
G1 X64.141 Y59.13 E1.00587
G1 X65.694 Y61.109 E1.08954
G1 X67.312 Y63.053 E1.17366
G1 X68.982 Y64.948 E1.25767
G1 X70.696 Y66.787 E1.34128
G1 X72.454 Y68.569 E1.42454
G1 X74.282 Y70.319 E1.50871
G1 X76.15 Y72.008 E1.59247
G1 X78.056 Y73.638 E1.67588
G1 X80.023 Y75.224 E1.75993
G1 X82.014 Y76.739 E1.84314
G1 X84.077 Y78.219 E1.92758
G1 X86.144 Y79.615 E2.01054
G1 X88.273 Y80.967 E2.09443
G1 X90.435 Y82.254 E2.17811
G1 X92.656 Y83.496 E2.26275
G1 X94.856 Y84.643 E2.34527
G1 X97.143 Y85.755 E2.42985
G1 X99.44 Y86.793 E2.51368
G1 X101.749 Y87.758 E2.59692
G1 X104.116 Y88.671 E2.6813
G1 X106.468 Y89.5 E2.76424
G1 X108.87 Y90.272 E2.84816
G1 X111.285 Y90.975 E2.93182
G1 X113.724 Y91.609 E3.01563
G1 X116.182 Y92.175 E3.09953
G1 X118.661 Y92.674 E3.18363
G1 X121.114 Y93.092 E3.2664
G1 X123.609 Y93.448 E3.35022
G1 X126.137 Y93.735 E3.43484
G1 X128.626 Y93.947 E3.51793
G1 X131.11 Y94.088 E3.60068
G1 X133.668 Y94.16 E3.68579
G1 X136.156 Y94.16 E3.76854
G1 X138.715 Y94.088 E3.85369
G1 X141.174 Y93.948 E3.93561
G1 X143.716 Y93.733 E4.02046
G1 X146.216 Y93.449 E4.10414
G1 X148.694 Y93.096 E4.18739
G1 X151.179 Y92.67 E4.27125
G1 X153.651 Y92.174 E4.35511
G1 X156.09 Y91.614 E4.43834
G1 X158.534 Y90.978 E4.52234
G1 X160.981 Y90.266 E4.6071
G1 X163.359 Y89.502 E4.69017
G1 X165.697 Y88.676 E4.77264
G1 X168.066 Y87.763 E4.85709
G1 X170.412 Y86.784 E4.94164
G1 X172.68 Y85.759 E5.02442
G1 X174.958 Y84.652 E5.10866
G1 X177.177 Y83.495 E5.19189
G1 X179.411 Y82.248 E5.27699
G1 X181.521 Y80.99 E5.35869
G1 X183.671 Y79.625 E5.44339
G1 X185.789 Y78.196 E5.52837
G1 X187.787 Y76.762 E5.61017
G1 X189.811 Y75.221 E5.69478
G1 X191.767 Y73.645 E5.77833
G1 X193.671 Y72.017 E5.86165
G1 X195.564 Y70.306 E5.94652
G1 X197.356 Y68.59 E6.02904
G1 X199.137 Y66.785 E6.11338
G1 X200.851 Y64.949 E6.19692
G1 X202.504 Y63.071 E6.28013
G1 X204.141 Y61.104 E6.36525
G1 X205.672 Y59.154 E6.4477
G1 X207.197 Y57.097 E6.53287
G1 X208.614 Y55.065 E6.61527
G1 X210.012 Y52.937 E6.69995
G1 X210.815 Y51.648 E6.75046
G1 X211.338 Y50.87 E6.78164
G1 X211.926 Y50.139 E6.81284
G1 X212.574 Y49.461 E6.84404
G1 X213.277 Y48.84 E6.87524
G1 X214.031 Y48.282 E6.90643
G1 X214.556 Y47.947 E6.92715
G1 X214.777 Y47.815 E6.93571
G1 X215.602 Y47.369 E6.9669
G1 X216.462 Y46.995 E6.99809
G1 X217.152 Y46.755 E7.02239
G1 X217.435 Y46.667 E7.03225
G1 X218.341 Y46.427 E7.06342
G1 X219.265 Y46.265 E7.09462
G1 X219.873 Y46.202 E7.11495
G1 X220.297 Y46.17 E7.1291
G1 X221.236 Y46.14 E7.16034
G1 X221.833 Y46.146 E7.1802
G1 X222.769 Y46.195 E7.21137
G1 X223.341 Y46.265 E7.23054
G1 X223.556 Y46.297 E7.23777
G1 X224.477 Y46.474 E7.26896
G1 X225.38 Y46.73 E7.30018
G1 X226.257 Y47.061 E7.33136
G1 X227.14 Y47.485 E7.36394
G1 X227.371 Y47.609 E7.37266
G1 X228.177 Y48.087 E7.40383
G1 X228.94 Y48.633 E7.43503
G1 X229.654 Y49.241 E7.46622
G1 X230.41 Y50.016 E7.50223
G1 X230.547 Y50.171 E7.50911
G1 X231.138 Y50.9 E7.54033
G1 X231.664 Y51.676 E7.57151
G1 X232.122 Y52.494 E7.60269
G1 X232.487 Y53.294 E7.63193
G1 X232.59 Y53.546 E7.64099
G1 X232.908 Y54.429 E7.6722
G1 X233.149 Y55.335 E7.70339
G1 X233.312 Y56.259 E7.73459
G1 X233.394 Y57.159 E7.76465
G1 X233.417 Y57.619 E7.77997
G1 X233.431 Y58.168 E7.79824
G1 X233.431 Y62.725 E7.9498
G1 X233.45 Y64.619 E8.0128
G1 X233.448 Y74.166 E8.33033
G1 X233.44 Y74.736 E8.34929
G1 X233.431 Y76.074 E8.3938
G1 X233.438 Y86.373 E8.73634
G1 X233.427 Y87.281 E8.76655
G1 X233.416 Y89.435 E8.83819
G1 X233.458 Y92.087 E8.92641
G1 X233.566 Y94.556 E9.0086
G1 X233.751 Y97.092 E9.09318
G1 X234 Y99.558 E9.17561
G1 X234.328 Y102.091 E9.26056
G1 X234.721 Y104.575 E9.34421
G1 X235.187 Y107.056 E9.42817
G1 X235.705 Y109.442 E9.50938
G1 X236.318 Y111.929 E9.59457
G1 X237.001 Y114.396 E9.67971
G1 X238.011 Y117.737 E9.7958
G1 X238.351 Y118.978 E9.8386
G1 X238.436 Y119.308 E9.84993
G1 X238.731 Y120.532 E9.89181
G1 X238.808 Y120.877 E9.90356
G1 X239.049 Y122.04 E9.94307
G1 X239.123 Y122.43 E9.95627
G1 X239.335 Y123.678 E9.99837
G1 X239.392 Y124.057 E10.01112
G1 X239.555 Y125.272 E10.05189
G1 X239.601 Y125.662 E10.06496
G1 X239.713 Y126.805 E10.10315
G1 X239.746 Y127.232 E10.1174
G1 X239.819 Y128.473 E10.15875
G1 X239.836 Y128.889 E10.17259
G1 X239.858 Y129.942 E10.20762
G1 X239.858 Y130.387 E10.22242
G1 X239.834 Y131.616 E10.26331
G1 X239.816 Y132.067 E10.27832
G1 X239.75 Y133.155 E10.31457
G1 X239.713 Y133.606 E10.32963
G1 X239.547 Y135.207 E10.38316
G1 X239.231 Y137.765 E10.46889
G1 X238.993 Y140.273 E10.55268
G1 X238.825 Y142.805 E10.63708
G1 X238.73 Y145.288 E10.71972
G1 X238.724 Y146.427 E10.75761
G1 X238.695 Y147.829 E10.80425
G1 X238.635 Y148.765 E10.83544
G1 X238.496 Y149.693 E10.86665
G1 X238.279 Y150.605 E10.89783
G1 X237.985 Y151.496 E10.92904
G1 X237.558 Y152.476 E10.96459
G1 X237.214 Y153.172 E10.99042
G1 X236.972 Y153.633 E11.00773
G1 X235.587 Y156.13 E11.1027
G1 X235.208 Y156.791 E11.12805
G1 X234.707 Y157.584 E11.15924
G1 X234.14 Y158.331 E11.19044
G1 X233.512 Y159.027 E11.22162
G1 X232.745 Y159.738 E11.2564
G1 X231.978 Y160.38 E11.28967
G1 X231.023 Y161.157 E11.33062
G1 X229.116 Y162.799 E11.41432
G1 X227.245 Y164.506 E11.49855
G1 X225.424 Y166.264 E11.58274
G1 X223.667 Y168.057 E11.66623
G1 X221.988 Y169.874 E11.74852
G1 X219.844 Y172.351 E11.85748
G1 X219.026 Y173.321 E11.89968
G1 X218.29 Y174.181 E11.93733
G1 X217.702 Y174.856 E11.9671
G1 X217.013 Y175.634 E12.00167
G1 X216.303 Y176.42 E12.0369
G1 X215.665 Y177.113 E12.06823
G1 X214.972 Y177.855 E12.102
G1 X214.241 Y178.621 E12.13721
G1 X212.86 Y180.029 E12.20281
G1 X212.228 Y180.657 E12.23244
G1 X211.479 Y181.387 E12.26723
G1 X210.833 Y182.007 E12.29701
G1 X210.121 Y182.678 E12.32955
G1 X209.378 Y183.365 E12.36321
G1 X208.651 Y184.025 E12.39587
G1 X207.983 Y184.621 E12.42564
G1 X207.293 Y185.227 E12.45619
G1 X206.571 Y185.849 E12.48788
G1 X205.918 Y186.404 E12.51639
G1 X204.489 Y187.588 E12.57811
G1 X203.763 Y188.174 E12.60914
G1 X203.046 Y188.743 E12.63958
G1 X202.379 Y189.264 E12.66773
G1 X201.711 Y189.776 E12.69573
G1 X200.39 Y190.768 E12.75067
G1 X199.541 Y191.39 E12.78568
G1 X198.227 Y192.326 E12.83934
G1 X197.537 Y192.806 E12.86729
G1 X196.126 Y193.763 E12.924
G1 X194.838 Y194.606 E12.9752
G1 X193.497 Y195.456 E13.02801
G1 X191.971 Y196.385 E13.08743
G1 X190.562 Y197.209 E13.14172
G1 X189.643 Y197.728 E13.17682
G1 X188.976 Y198.096 E13.20216
G1 X188.175 Y198.529 E13.23244
G1 X187.448 Y198.913 E13.25979
G1 X185.869 Y199.722 E13.3188
G1 X184.902 Y200.199 E13.35466
G1 X184.125 Y200.574 E13.38335
G1 X183.295 Y200.967 E13.4139
G1 X182.357 Y201.4 E13.44826
G1 X181.573 Y201.754 E13.47687
G1 X180.627 Y202.171 E13.51126
G1 X179.814 Y202.523 E13.54072
G1 X178.818 Y202.943 E13.57667
G1 X177.994 Y203.284 E13.60633
G1 X176.955 Y203.704 E13.64361
G1 X176.08 Y204.046 E13.67486
G1 X174.36 Y204.701 E13.73607
G1 X173.204 Y205.124 E13.77701
G1 X172.344 Y205.429 E13.80736
G1 X171.388 Y205.76 E13.84101
G1 X170.439 Y206.08 E13.87432
G1 X169.492 Y206.389 E13.90745
G1 X168.547 Y206.688 E13.94042
G1 X167.667 Y206.958 E13.97103
G1 X166.643 Y207.261 E14.00655
G1 X165.862 Y207.484 E14.03357
G1 X164.863 Y207.762 E14.06806
G1 X164.009 Y207.988 E14.09744
G1 X163.081 Y208.226 E14.1293
G1 X162.209 Y208.439 E14.15916
G1 X160.615 Y208.807 E14.21357
G1 X159.662 Y209.016 E14.24602
G1 X158.68 Y209.223 E14.2794
G1 X156.78 Y209.639 E14.34409
G1 X154.369 Y210.232 E14.42667
G1 X151.894 Y210.915 E14.51207
G1 X149.494 Y211.65 E14.59555
G1 X147.112 Y212.455 E14.67918
G1 X144.761 Y213.325 E14.76255
G1 X142.354 Y214.292 E14.84883
G1 X141.273 Y214.753 E14.88792
G1 X140.392 Y215.076 E14.91913
G1 X139.487 Y215.323 E14.95033
G1 X138.565 Y215.491 E14.9815
G1 X137.21 Y215.595 E15.0267
G1 X136.298 Y215.607 E15.05703
G1 X133.305 Y215.607 E15.15658
G1 X132.669 Y215.598 E15.17774
G1 X131.733 Y215.545 E15.20892
G1 X130.805 Y215.412 E15.2401
G1 X129.891 Y215.2 E15.27131
G1 X128.968 Y214.901 E15.30358
G1 X128.522 Y214.734 E15.31942
G1 X128.124 Y214.576 E15.33366
G1 X126.299 Y213.81 E15.39949
G1 X123.947 Y212.901 E15.48336
G1 X121.587 Y212.065 E15.56663
G1 X119.181 Y211.288 E15.65072
G1 X116.774 Y210.586 E15.73411
G1 X114.357 Y209.954 E15.81721
G1 X110.883 Y209.168 E15.93567
G1 X109.994 Y208.98 E15.9659
G1 X108.404 Y208.626 E16.02007
G1 X107.491 Y208.41 E16.05128
G1 X106.664 Y208.207 E16.0796
G1 X105.68 Y207.954 E16.11339
G1 X104.839 Y207.73 E16.14234
G1 X103.872 Y207.461 E16.17572
G1 X103.072 Y207.23 E16.20342
G1 X102.011 Y206.914 E16.24024
G1 X101.22 Y206.67 E16.26777
G1 X100.222 Y206.354 E16.30259
G1 X99.234 Y206.03 E16.33717
G1 X98.389 Y205.744 E16.36684
G1 X97.403 Y205.402 E16.40156
G1 X96.336 Y205.02 E16.43925
G1 X95.381 Y204.669 E16.47309
G1 X94.588 Y204.371 E16.50127
G1 X93.575 Y203.98 E16.53738
G1 X92.583 Y203.587 E16.57287
G1 X91.724 Y203.238 E16.60371
G1 X90.748 Y202.834 E16.63884
G1 X89.998 Y202.517 E16.66592
G1 X89.086 Y202.123 E16.69897
G1 X88.223 Y201.74 E16.73037
G1 X87.3 Y201.324 E16.76404
G1 X86.436 Y200.922 E16.79574
G1 X85.634 Y200.542 E16.82526
G1 X84.833 Y200.156 E16.85483
G1 X83.918 Y199.704 E16.88877
G1 X83.244 Y199.363 E16.9139
G1 X82.233 Y198.839 E16.95177
G1 X81.586 Y198.497 E16.97611
G1 X80.779 Y198.06 E17.00663
G1 X80.094 Y197.681 E17.03267
G1 X78.557 Y196.802 E17.09156
G1 X77.178 Y195.979 E17.14498
G1 X75.794 Y195.122 E17.19912
G1 X74.347 Y194.193 E17.25631
G1 X73.554 Y193.667 E17.28796
G1 X72.201 Y192.748 E17.34236
G1 X70.803 Y191.763 E17.39924
G1 X70.173 Y191.309 E17.42507
G1 X69.47 Y190.794 E17.45405
G1 X68.813 Y190.305 E17.48129
G1 X68.041 Y189.722 E17.51347
G1 X67.403 Y189.231 E17.54025
G1 X66.718 Y188.695 E17.56918
G1 X65.973 Y188.104 E17.6008
G1 X65.351 Y187.601 E17.62741
G1 X64.605 Y186.988 E17.65952
G1 X63.855 Y186.362 E17.69202
G1 X63.229 Y185.829 E17.71936
G1 X62.426 Y185.134 E17.75468
G1 X61.765 Y184.554 E17.78393
G1 X61.126 Y183.982 E17.81246
G1 X60.393 Y183.316 E17.8454
G1 X59.615 Y182.595 E17.88068
G1 X58.934 Y181.952 E17.91183
G1 X58.282 Y181.326 E17.94189
G1 X57.524 Y180.585 E17.97715
G1 X56.894 Y179.958 E18.00671
G1 X56.261 Y179.317 E18.03667
G1 X55.464 Y178.496 E18.07473
G1 X54.767 Y177.764 E18.10835
G1 X54.159 Y177.113 E18.13798
G1 X53.451 Y176.344 E18.17274
G1 X52.77 Y175.588 E18.20658
G1 X52.103 Y174.835 E18.24004
G1 X51.442 Y174.075 E18.27354
G1 X50.825 Y173.351 E18.30518
G1 X49.971 Y172.332 E18.3494
G1 X48.267 Y170.356 E18.43619
G1 X46.578 Y168.505 E18.51953
G1 X44.835 Y166.701 E18.60296
G1 X43.007 Y164.911 E18.68805
G1 X41.17 Y163.215 E18.77121
G1 X39.265 Y161.552 E18.85532
G1 X38.115 Y160.593 E18.90512
G1 X37.194 Y159.838 E18.94473
G1 X36.495 Y159.213 E18.97592
G1 X35.852 Y158.531 E19.00709
G1 X35.268 Y157.796 E19.03832
G1 X34.651 Y156.847 E19.07597
G1 X34.267 Y156.18 E19.10156
G1 X32.789 Y153.517 E19.20286
G1 X32.45 Y152.887 E19.22666
G1 X32.042 Y152.043 E19.25784
G1 X31.706 Y151.167 E19.28904
G1 X31.447 Y150.266 E19.32022
G1 X31.265 Y149.346 E19.35142
G1 X31.147 Y148.139 E19.39175
G1 X31.128 Y147.689 E19.40673
G1 X31.118 Y147.328 E19.41874
G1 X31.1 Y145.422 E19.48214
G1 X31.008 Y142.946 E19.56455
G1 X30.843 Y140.446 E19.64788
G1 X30.602 Y137.883 E19.7335
G1 X30.365 Y135.901 E19.79989
G1 X30.266 Y135.111 E19.82638
G1 X30.114 Y133.624 E19.87609
G1 X30.077 Y133.176 E19.89104
G1 X30.007 Y132.031 E19.9292
G1 X29.99 Y131.595 E19.94371
G1 X29.968 Y130.564 E19.97801
G1 X29.967 Y130.119 E19.99281
G1 X29.992 Y128.812 E20.03629
G1 X30.009 Y128.371 E20.05097
G1 X30.073 Y127.292 E20.08692
G1 X30.104 Y126.892 E20.10026
G1 X30.219 Y125.694 E20.14029
G1 X30.266 Y125.287 E20.15392
G1 X30.433 Y124.038 E20.19583
G1 X30.492 Y123.652 E20.20882
G1 X30.692 Y122.476 E20.24849
G1 X30.764 Y122.092 E20.26149
G1 X31.019 Y120.859 E20.30336
G1 X31.097 Y120.513 E20.31516
G1 X31.389 Y119.3 E20.35666
G1 X31.475 Y118.965 E20.36816
G1 X31.899 Y117.434 E20.421
G1 X32.485 Y115.514 E20.48777
G1 X32.879 Y114.199 E20.53342
G1 X33.55 Y111.755 E20.61772
G1 X34.152 Y109.289 E20.70215
G1 X34.687 Y106.798 E20.78689
G1 X35.136 Y104.362 E20.86927
G1 X35.529 Y101.84 E20.95417
G1 X35.84 Y99.396 E21.03611
G1 X36.091 Y96.848 E21.12127
G1 X36.264 Y94.38 E21.20356
G1 X36.369 Y91.825 E21.28861
G1 X36.404 Y89.383 E21.36984
G1 X36.405 Y88.535 E21.39804
G1 X36.385 Y85.671 E21.4933
G1 X36.394 Y83.668 E21.55992
G1 X36.394 Y75.363 E21.83615
G1 X36.383 Y74.381 E21.86881
G1 X36.375 Y64.176 E22.20823
G1 X36.385 Y63.461 E22.23201
G1 X36.394 Y62.156 E22.27542
G1 X36.395 Y58.352 E22.40194
G1 X36.405 Y57.668 E22.42469
G1 X36.459 Y56.732 E22.45588
G1 X36.602 Y55.752 E22.48882
G1 X36.642 Y55.544 E22.49586
G1 X36.858 Y54.631 E22.52707
G1 X37.151 Y53.74 E22.55826
G1 X37.46 Y53.004 E22.58481
G1 X37.54 Y52.831 E22.59115
G1 X37.969 Y51.997 E22.62235
G1 X38.468 Y51.203 E22.65354
G1 X39.033 Y50.455 E22.68471
G1 X39.601 Y49.817 E22.71313
G1 X39.758 Y49.654 E22.72065
G1 X40.437 Y49.007 E22.75185
G0 F6000 X40.713 Y49.297
G1 F900 X41.433 Y48.722 E22.78249
G1 X42.199 Y48.212 E22.8131
G1 X42.991 Y47.779 E22.84312
G1 X43.218 Y47.667 E22.85154
G1 X44.06 Y47.296 E22.88215
G1 X44.932 Y46.999 E22.91278
G1 X45.826 Y46.779 E22.94341
G1 X46.736 Y46.638 E22.97403
G1 X47.386 Y46.586 E22.99572
G1 X48.035 Y46.554 E23.01733
G1 X49.041 Y46.552 E23.05079
G1 X49.61 Y46.578 E23.06974
G1 X50.527 Y46.66 E23.10036
G1 X51.433 Y46.821 E23.13097
G1 X52.408 Y47.088 E23.16459
G1 X52.709 Y47.186 E23.17512
G1 X53.571 Y47.509 E23.20573
G1 X54.605 Y48.016 E23.24404
G1 X54.789 Y48.119 E23.25105
G1 X55.572 Y48.603 E23.28167
G1 X56.31 Y49.153 E23.31228
G1 X56.997 Y49.765 E23.34288
G1 X57.629 Y50.435 E23.37351
G1 X58.201 Y51.157 E23.40415
G1 X58.579 Y51.717 E23.42662
G1 X59.467 Y53.126 E23.48202
G1 X60.875 Y55.27 E23.56733
G1 X62.318 Y57.34 E23.65126
G1 X63.837 Y59.392 E23.73617
G1 X65.387 Y61.366 E23.81965
G1 X67.003 Y63.307 E23.90365
G1 X68.69 Y65.222 E23.98853
G1 X70.384 Y67.039 E24.07116
G1 X72.193 Y68.873 E24.15684
G1 X74.001 Y70.603 E24.24007
G1 X75.887 Y72.31 E24.32467
G1 X77.807 Y73.952 E24.4087
G1 X79.78 Y75.542 E24.49298
G1 X81.778 Y77.062 E24.57648
G1 X83.849 Y78.548 E24.66126
G1 X85.911 Y79.941 E24.74402
G1 X88.075 Y81.315 E24.82928
G1 X90.256 Y82.614 E24.91371
G1 X92.414 Y83.819 E24.99592
G1 X94.703 Y85.013 E25.08179
G1 X96.982 Y86.122 E25.16608
G1 X99.27 Y87.156 E25.24959
G1 X101.587 Y88.124 E25.33311
G1 X103.976 Y89.046 E25.41828
G1 X106.35 Y89.882 E25.50199
G1 X108.742 Y90.651 E25.58556
G1 X111.179 Y91.36 E25.66998
G1 X113.647 Y92.002 E25.7548
