;FLAVOR:Marlin
;TIME:7079
;Filament used: 6.42117m
;Layer height: 0.3
;MINX:23.411
;MINY:31.643
;MINZ:0.3
;MAXX:202.755
;MAXY:184.172
;MAXZ:1.8
;Generated with Cura_SteamEngine 4.5.0
M140 S55
M105
M190 S55
M104 S200
M105
M109 S200
M82 ;absolute extrusion mode
G28 ;Home
G1 Z15.0 F2000 ;Move the platform
G92 E0
G92 E0
G1 F1500 E-6.5
;LAYER_COUNT:6
;LAYER:0
M107
M204 S1000
G0 F7500 X35.455 Y37.937 Z0.3
;TYPE:SKIRT
G1 F1500 E0
G1 X36.043 Y37.485 E0.037
G1 X36.736 Y37.07 E0.0773
G1 X37.189 Y36.845 E0.10253
G1 X37.506 Y36.737 E0.11924
G1 X38.206 Y36.54 E0.15552
G1 X38.412 Y36.49 E0.1661
G1 X38.921 Y36.409 E0.19181
G1 X39.515 Y36.363 E0.22154
G1 X42.277 Y36.11 E0.35991
G1 X44.972 Y35.787 E0.49533
G1 X47.686 Y35.383 E0.63222
G1 X50.418 Y34.896 E0.77067
G1 X50.706 Y34.858 E0.78516
G1 X51.572 Y34.784 E0.82852
G1 X54.305 Y34.529 E0.96547
G1 X57.07 Y34.193 E1.10443
G1 X59.729 Y33.793 E1.23858
G1 X62.307 Y33.331 E1.36924
G1 X62.598 Y33.293 E1.38388
G1 X63.466 Y33.219 E1.42735
G1 X66.198 Y32.964 E1.56424
G1 X68.963 Y32.628 E1.7032
G1 X71.635 Y32.226 E1.83801
G1 X74.256 Y31.758 E1.97084
G1 X74.757 Y31.709 E1.99595
G1 X75.384 Y31.698 E2.02724
G1 X75.667 Y31.702 E2.04136
G1 X75.934 Y31.717 E2.0547
G1 X76.975 Y31.819 E2.10688
G1 X77.704 Y31.901 E2.14348
G1 X80.383 Y32.129 E2.27762
G1 X83.13 Y32.285 E2.41489
G1 X85.883 Y32.363 E2.55229
G1 X88.6 Y32.363 E2.68785
G1 X91.356 Y32.285 E2.8254
G1 X94.098 Y32.131 E2.96241
G1 X96.794 Y31.901 E3.09741
G1 X98.88 Y31.672 E3.2021
G1 X99.118 Y31.655 E3.21401
G1 X99.488 Y31.644 E3.23247
G1 X136.196 Y31.643 E5.06384
G1 X136.94 Y31.653 E5.10096
G1 X137.205 Y31.668 E5.11421
G1 X138.127 Y31.758 E5.16042
G1 X139.845 Y31.945 E5.24664
G1 X142.579 Y32.162 E5.38347
G1 X145.333 Y32.303 E5.52105
G1 X148.051 Y32.366 E5.65669
G1 X150.804 Y32.351 E5.79404
G1 X153.52 Y32.26 E5.92961
G1 X156.265 Y32.09 E6.06682
G1 X159.147 Y31.828 E6.2112
G1 X160.103 Y31.727 E6.25916
G1 X160.38 Y31.71 E6.27301
G1 X161.086 Y31.698 E6.30823
G1 X161.331 Y31.702 E6.32046
G1 X161.862 Y31.755 E6.34708
G1 X162.591 Y31.89 E6.38407
G1 X165.294 Y32.353 E6.52089
G1 X167.981 Y32.735 E6.65629
G1 X170.752 Y33.049 E6.79542
G1 X173.447 Y33.279 E6.93036
G1 X173.76 Y33.321 E6.94612
G1 X174.471 Y33.453 E6.9822
G1 X177.192 Y33.919 E7.11993
G1 X179.879 Y34.301 E7.25533
G1 X182.65 Y34.615 E7.39446
G1 X185.345 Y34.845 E7.5294
G1 X185.659 Y34.887 E7.54521
G1 X186.365 Y35.018 E7.58103
G1 X189.086 Y35.485 E7.71877
G1 X191.776 Y35.868 E7.85433
G1 X194.51 Y36.179 E7.9916
G1 X197.213 Y36.408 E8.12694
G1 X197.718 Y36.493 E8.15249
G1 X198.335 Y36.648 E8.18423
G1 X198.569 Y36.714 E8.19636
G1 X199.245 Y36.992 E8.23282
G1 X199.876 Y37.342 E8.26882
G1 X200.03 Y37.434 E8.27777
G1 X200.612 Y37.879 E8.31432
G1 X201.06 Y38.314 E8.34548
G1 X201.228 Y38.486 E8.35747
G1 X201.683 Y39.075 E8.39461
G1 X202.044 Y39.682 E8.42984
G1 X202.138 Y39.852 E8.43953
G1 X202.412 Y40.512 E8.47518
G1 X202.582 Y41.104 E8.50591
G1 X202.646 Y41.355 E8.51884
G1 X202.744 Y42.089 E8.55578
G1 X202.755 Y42.751 E8.58881
G1 X202.752 Y42.988 E8.60064
G1 X202.738 Y43.25 E8.61373
G1 X202.682 Y43.771 E8.63987
G1 X200.345 Y61.522 E9.53311
G1 X200.024 Y64.251 E9.6702
G1 X199.784 Y66.96 E9.80588
G1 X199.62 Y69.678 E9.94173
G1 X199.606 Y70.156 E9.96559
G1 X199.531 Y71.715 E10.04346
G1 X199.495 Y72.076 E10.06156
G1 X198.252 Y81.529 E10.53723
G1 X197.933 Y84.254 E10.67411
G1 X197.692 Y86.968 E10.81004
G1 X197.526 Y89.715 E10.94734
G1 X197.44 Y92.431 E11.08291
G1 X197.43 Y95.162 E11.21916
G1 X197.549 Y99.08 E11.41472
G1 X197.572 Y100.151 E11.46817
G1 X197.569 Y100.377 E11.47944
G1 X197.555 Y100.637 E11.49243
G1 X197.519 Y100.995 E11.51038
G1 X196.358 Y109.83 E11.95495
G1 X196.039 Y112.555 E12.09183
G1 X195.798 Y115.269 E12.22777
G1 X195.632 Y118.014 E12.36497
G1 X195.546 Y120.732 E12.50064
G1 X195.536 Y123.461 E12.63679
G1 X195.653 Y127.347 E12.83075
G1 X195.673 Y127.76 E12.85138
G1 X195.686 Y128.614 E12.89399
G1 X195.683 Y128.841 E12.90531
G1 X195.669 Y129.102 E12.91835
G1 X195.611 Y129.64 E12.94535
G1 X193.628 Y144.704 E13.70338
G1 X193.307 Y147.434 E13.84052
G1 X193.067 Y150.143 E13.9762
G1 X192.901 Y152.888 E14.1134
G1 X192.815 Y155.591 E14.24832
G1 X192.81 Y156.161 E14.27676
G1 X192.789 Y157.586 E14.34786
G1 X192.775 Y157.841 E14.3606
G1 X192.743 Y158.165 E14.37685
G1 X192.711 Y158.429 E14.39011
G1 X190.121 Y178.102 E15.38007
G1 X190.011 Y178.852 E15.41789
G1 X189.962 Y179.114 E15.43119
G1 X189.87 Y179.495 E15.45074
G1 X189.735 Y179.978 E15.47576
G1 X189.452 Y180.669 E15.51302
G1 X189.118 Y181.268 E15.54723
G1 X189.015 Y181.441 E15.55728
G1 X188.567 Y182.026 E15.59404
G1 X188.138 Y182.47 E15.62484
G1 X187.974 Y182.63 E15.63627
G1 X187.383 Y183.084 E15.67345
G1 X186.69 Y183.499 E15.71375
G1 X186.237 Y183.724 E15.73898
G1 X185.92 Y183.832 E15.75569
G1 X185.081 Y184.064 E15.79912
G1 X184.348 Y184.163 E15.83602
G1 X183.735 Y184.172 E15.86661
G1 X183.452 Y184.168 E15.88073
G1 X182.919 Y184.115 E15.90745
G1 X182.216 Y183.986 E15.94311
G1 X179.475 Y183.517 E16.08185
G1 X176.774 Y183.132 E16.21796
G1 X174.016 Y182.82 E16.35644
G1 X171.331 Y182.591 E16.49088
G1 X171.02 Y182.549 E16.50654
G1 X170.329 Y182.421 E16.5416
G1 X167.583 Y181.951 E16.68059
G1 X164.896 Y181.569 E16.81599
G1 X162.125 Y181.255 E16.95512
G1 X159.43 Y181.025 E17.09006
G1 X159.116 Y180.983 E17.10587
G1 X158.41 Y180.852 E17.14169
G1 X155.689 Y180.385 E17.27943
G1 X152.999 Y180.002 E17.41499
G1 X150.264 Y179.691 E17.55231
G1 X147.553 Y179.461 E17.68805
G1 X147.049 Y179.377 E17.71354
G1 X146.432 Y179.221 E17.7453
G1 X146.187 Y179.152 E17.75799
G1 X145.923 Y179.066 E17.77185
G1 X145.563 Y178.93 E17.79105
G1 X143.529 Y178.131 E17.90007
G1 X140.947 Y177.202 E18.03697
G1 X138.385 Y176.36 E18.17152
G1 X135.727 Y175.569 E18.30987
G1 X133.106 Y174.87 E18.4452
G1 X130.411 Y174.231 E18.58339
G1 X127.736 Y173.676 E18.71968
G1 X125.054 Y173.2 E18.85558
G1 X122.336 Y172.796 E18.99267
G1 X119.645 Y172.472 E19.1279
G1 X116.903 Y172.222 E19.26526
G1 X114.154 Y172.049 E19.40268
G1 X111.436 Y171.955 E19.53837
G1 X109.455 Y171.934 E19.6372
G1 X106.854 Y171.933 E19.76697
G1 X104.057 Y171.972 E19.90652
G1 X101.339 Y172.086 E20.04225
G1 X98.625 Y172.278 E20.17799
G1 X95.856 Y172.551 E20.3168
G1 X93.188 Y172.891 E20.45098
G1 X90.439 Y173.321 E20.5898
G1 X87.764 Y173.818 E20.72554
G1 X85.091 Y174.393 E20.86195
G1 X82.484 Y175.03 E20.99584
G1 X79.778 Y175.774 E21.13585
G1 X77.163 Y176.573 E21.27227
G1 X74.6 Y177.437 E21.40721
G1 X71.997 Y178.396 E21.5456
G1 X71.545 Y178.578 E21.56991
G1 X70.394 Y179.024 E21.6315
G1 X70.123 Y179.115 E21.64576
G1 X69.407 Y179.319 E21.6829
G1 X69.206 Y179.37 E21.69325
G1 X68.667 Y179.458 E21.72049
G1 X68.08 Y179.504 E21.74987
G1 X65.291 Y179.758 E21.88959
G1 X62.589 Y180.083 E22.02536
G1 X59.884 Y180.485 E22.1618
G1 X57.172 Y180.969 E22.29924
G1 X56.893 Y181.006 E22.31328
G1 X56.029 Y181.083 E22.35656
G1 X53.28 Y181.339 E22.4943
G1 X50.544 Y181.671 E22.6318
G1 X47.82 Y182.08 E22.76922
G1 X45.286 Y182.534 E22.89766
G1 X45.006 Y182.571 E22.91175
G1 X44.154 Y182.647 E22.95442
G1 X41.416 Y182.901 E23.09161
G1 X38.678 Y183.232 E23.2292
G1 X35.954 Y183.64 E23.36662
G1 X33.316 Y184.112 E23.50032
G1 X32.81 Y184.161 E23.52568
G1 X32.134 Y184.172 E23.55941
G1 X31.905 Y184.168 E23.57084
G1 X31.189 Y184.074 E23.60687
G1 X30.581 Y183.921 E23.63815
G1 X30.347 Y183.855 E23.65028
G1 X29.67 Y183.577 E23.68679
G1 X29.036 Y183.225 E23.72297
G1 X28.89 Y183.138 E23.73145
G1 X28.305 Y182.69 E23.76821
G1 X27.85 Y182.249 E23.79982
G1 X27.678 Y182.072 E23.81213
G1 X27.232 Y181.493 E23.8486
G1 X26.898 Y180.935 E23.88104
G1 X26.786 Y180.734 E23.89252
G1 X26.507 Y180.064 E23.92873
G1 X26.313 Y179.384 E23.96401
G1 X26.259 Y179.168 E23.97512
G1 X26.204 Y178.903 E23.98862
G1 X26.156 Y178.604 E24.00373
G1 X26.113 Y178.299 E24.0191
G1 X23.532 Y158.691 E25.00578
G1 X23.441 Y157.922 E25.04441
G1 X23.421 Y157.656 E25.05772
G1 X23.411 Y157.264 E25.07729
G1 X23.419 Y156.742 E25.10333
G1 X23.503 Y156.061 E25.13756
G1 X24.141 Y153.337 E25.27714
G1 X24.685 Y150.687 E25.41211
G1 X25.155 Y148 E25.5482
G1 X25.549 Y145.302 E25.68423
G1 X25.872 Y142.563 E25.82183
G1 X26.113 Y139.854 E25.95751
G1 X26.28 Y137.109 E26.09471
G1 X26.368 Y134.389 E26.23049
G1 X26.379 Y131.608 E26.36923
G1 X26.334 Y129.498 E26.47453
G1 X26.305 Y128.517 E26.52349
G1 X26.313 Y127.987 E26.54993
G1 X26.367 Y127.452 E26.57676
G1 X26.481 Y126.837 E26.60797
G1 X26.816 Y125.166 E26.69299
G1 X27.281 Y122.449 E26.83051
G1 X27.663 Y119.762 E26.96592
G1 X27.974 Y117.021 E27.10354
G1 X28.206 Y114.282 E27.24068
G1 X28.36 Y111.563 E27.37655
G1 X28.437 Y108.814 E27.51375
G1 X28.437 Y106.096 E27.64935
G1 X28.358 Y103.334 E27.78721
G1 X28.27 Y101.622 E27.87273
G1 X28.2 Y100.436 E27.932
G1 X28.191 Y100.062 E27.95067
G1 X28.199 Y99.524 E27.97751
G1 X28.261 Y98.945 E28.00656
G1 X28.792 Y96.287 E28.14179
G1 X29.257 Y93.577 E28.27897
G1 X29.642 Y90.866 E28.41558
G1 X29.951 Y88.156 E28.55166
G1 X30.181 Y85.447 E28.6873
G1 X30.337 Y82.7 E28.82457
G1 X30.415 Y79.947 E28.96197
G1 X30.415 Y77.229 E29.09757
G1 X30.337 Y74.468 E29.23537
G1 X30.248 Y72.725 E29.32245
G1 X30.176 Y71.507 E29.38332
G1 X30.167 Y71.142 E29.40153
G1 X30.175 Y70.621 E29.42753
G1 X30.27 Y69.895 E29.46406
G1 X30.534 Y68.838 E29.51841
G1 X31.157 Y66.176 E29.65481
G1 X31.719 Y63.441 E29.79411
G1 X32.179 Y60.803 E29.9277
G1 X32.577 Y58.085 E30.06475
G1 X32.898 Y55.36 E30.20164
G1 X33.139 Y52.646 E30.33758
G1 X33.306 Y49.901 E30.47478
G1 X33.394 Y47.181 E30.61055
G1 X33.405 Y44.388 E30.7499
G1 X33.374 Y42.66 E30.83612
G1 X33.382 Y42.15 E30.86157
G1 X33.478 Y41.424 E30.8981
G1 X33.641 Y40.777 E30.93139
G1 X33.699 Y40.572 E30.94202
G1 X33.976 Y39.898 E30.97838
G1 X34.289 Y39.334 E31.01056
G1 X34.414 Y39.125 E31.02271
G1 X34.86 Y38.543 E31.05929
G1 X35.455 Y37.937 E31.10166
G1 F1500 E24.60166
;MESH:Surgical_Mask_Strap_Remix.stl(4)
G0 F7500 X62.863 Y35.794
G0 X63.82 Y35.794
G0 X64.746 Y36.043
G0 X65.576 Y36.521
G0 X66.253 Y37.198
G0 X66.731 Y38.028
G0 X66.98 Y38.954
G0 X66.98 Y39.911
G0 X66.731 Y40.836
G0 X66.253 Y41.667
G0 X65.449 Y42.416
G0 X64.747 Y42.822
G0 X100.504 Y48.772
G0 X99.216 Y49.461
G0 X99.853 Y49.777
G0 X100.994 Y50.252
;TYPE:WALL-INNER
G1 F1500 E31.10166
G1 X135.482 Y50.249 E32.82227
G1 X135.537 Y50.256 E32.82504
G1 X135.713 Y50.256 E32.83382
G1 X135.913 Y50.236 E32.84385
G1 X136.116 Y50.186 E32.85428
G1 X136.332 Y50.102 E32.86584
G1 X136.489 Y50.013 E32.87484
G1 X136.653 Y49.897 E32.88486
G1 X136.803 Y49.756 E32.89513
G1 X136.933 Y49.6 E32.90527
G1 X137.043 Y49.425 E32.91558
G1 X137.13 Y49.241 E32.92573
G1 X137.191 Y49.045 E32.93597
G1 X137.234 Y48.813 E32.94774
G1 X137.237 Y48.633 E32.95673
G1 X137.227 Y48.437 E32.96652
G1 X137.177 Y48.203 E32.97846
G1 X137.131 Y48.082 E32.98491
G1 X134.258 Y40.026 E33.41162
G1 X134.167 Y39.845 E33.42173
G1 X134.055 Y39.677 E33.4318
G1 X133.921 Y39.522 E33.44203
G1 X133.766 Y39.386 E33.45231
G1 X133.596 Y39.269 E33.46261
G1 X133.411 Y39.177 E33.47292
G1 X133.221 Y39.11 E33.48297
G1 X132.985 Y39.058 E33.49502
G1 X132.744 Y39.051 E33.50705
G1 X103.804 Y39.051 E34.95088
G1 X103.682 Y39.044 E34.95697
G1 X103.483 Y39.056 E34.96692
G1 X103.307 Y39.09 E34.97586
G1 X103.113 Y39.15 E34.98599
G1 X102.9 Y39.249 E34.99771
G1 X102.749 Y39.349 E35.00675
G1 X102.595 Y39.473 E35.01661
G1 X102.455 Y39.623 E35.02685
G1 X102.333 Y39.789 E35.03713
G1 X102.235 Y39.97 E35.04739
G1 X102.172 Y40.132 E35.05607
G1 X99.296 Y48.182 E35.48254
G1 X99.247 Y48.374 E35.49243
G1 X99.224 Y48.575 E35.50252
G1 X99.223 Y48.781 E35.5128
G1 X99.257 Y49.013 E35.5245
G1 X99.309 Y49.191 E35.53375
G1 X99.387 Y49.375 E35.54372
G1 X99.488 Y49.551 E35.55384
G1 X99.614 Y49.716 E35.5642
G1 X99.76 Y49.862 E35.5745
G1 X99.92 Y49.986 E35.5846
G1 X100.097 Y50.092 E35.5949
G1 X100.289 Y50.173 E35.60529
G1 X100.484 Y50.227 E35.61539
G1 X100.684 Y50.257 E35.62548
G1 X100.886 Y50.263 E35.63556
G1 X100.994 Y50.252 E35.64097
G0 F7500 X100.976 Y49.852
;TYPE:WALL-OUTER
G1 F1500 X135.509 Y49.849 E37.36383
G1 X135.563 Y49.856 E37.36655
G1 X135.693 Y49.856 E37.37304
G1 X135.845 Y49.841 E37.38066
G1 X135.995 Y49.804 E37.38836
G1 X136.16 Y49.74 E37.39719
G1 X136.274 Y49.675 E37.40374
G1 X136.399 Y49.587 E37.41137
G1 X136.511 Y49.481 E37.41906
G1 X136.609 Y49.364 E37.42667
G1 X136.691 Y49.233 E37.43438
G1 X136.756 Y49.095 E37.44199
G1 X136.802 Y48.948 E37.44968
G1 X136.835 Y48.773 E37.45856
G1 X136.837 Y48.641 E37.46515
G1 X136.829 Y48.49 E37.47269
G1 X136.792 Y48.316 E37.48157
G1 X136.757 Y48.224 E37.48648
G1 X133.89 Y40.184 E37.91234
G1 X133.821 Y40.047 E37.91999
G1 X133.736 Y39.92 E37.92761
G1 X133.636 Y39.804 E37.93525
G1 X133.52 Y39.702 E37.94296
G1 X133.393 Y39.615 E37.95064
G1 X133.254 Y39.546 E37.95838
G1 X133.111 Y39.495 E37.96596
G1 X132.936 Y39.457 E37.97489
G1 X132.738 Y39.451 E37.98478
G1 X103.802 Y39.451 E39.4284
G1 X103.684 Y39.445 E39.43429
G1 X103.533 Y39.454 E39.44184
G1 X103.404 Y39.479 E39.4484
G1 X103.257 Y39.524 E39.45606
G1 X103.096 Y39.599 E39.46493
G1 X102.986 Y39.672 E39.47151
G1 X102.868 Y39.767 E39.47907
G1 X102.763 Y39.879 E39.48673
G1 X102.672 Y40.003 E39.4944
G1 X102.599 Y40.138 E39.50206
G1 X102.547 Y40.272 E39.50923
G1 X99.679 Y48.3 E39.93454
G1 X99.641 Y48.447 E39.94212
G1 X99.624 Y48.599 E39.94975
G1 X99.623 Y48.753 E39.95743
G1 X99.649 Y48.928 E39.96626
G1 X99.686 Y49.056 E39.9729
G1 X99.746 Y49.196 E39.9805
G1 X99.822 Y49.329 E39.98814
G1 X99.916 Y49.452 E39.99587
G1 X100.025 Y49.561 E40.00356
G1 X100.146 Y49.655 E40.0112
G1 X100.278 Y49.734 E40.01888
G1 X100.421 Y49.794 E40.02661
G1 X100.568 Y49.835 E40.03423
G1 X100.719 Y49.858 E40.04185
G1 X100.872 Y49.862 E40.04948
G1 X100.976 Y49.852 E40.0547
G0 F7500 X101.176 Y49.852
G0 X101.176 Y50.292
G1 F1500 E33.5547
G0 F7500 X100.226 Y50.354
G0 X100.705 Y48.977
G0 X100.224 Y54.806
G0 X100.224 Y53.35
G0 X93.755 Y53.34
G0 X93.312 Y51.766
G0 X76.922 Y53.916
G0 X77.217 Y56.17
G0 X79.538 Y56.683
G0 X80.52 Y59.049
G0 X79.881 Y60.29
G0 X78.3 Y61.088
;TYPE:WALL-INNER
G1 F1500 E40.0547
G1 X77.673 Y61.088 E40.08598
G1 X77.064 Y60.926 E40.11742
G1 X76.526 Y60.614 E40.14845
G1 X76.084 Y60.172 E40.17963
G1 X75.77 Y59.63 E40.21088
G1 X75.6 Y58.994 E40.24373
G1 X74.942 Y54.002 E40.49493
G1 X65.027 Y55.304 E40.99384
G1 X64.83 Y55.329 E41.00375
G1 X64.855 Y55.526 E41.01015
G1 X65.169 Y57.906 E41.12992
G1 X66.401 Y57.906 E41.19138
G1 X67.003 Y58.067 E41.22247
G1 X67.545 Y58.38 E41.2537
G1 X67.987 Y58.822 E41.28488
G1 X68.3 Y59.364 E41.31611
G1 X68.461 Y59.966 E41.3472
G1 X68.461 Y60.594 E41.37853
G1 X68.299 Y61.197 E41.40968
G1 X67.989 Y61.735 E41.44066
G1 X67.547 Y62.178 E41.47188
G1 X67.001 Y62.494 E41.50335
G1 X66.401 Y62.655 E41.53435
G1 X65.773 Y62.655 E41.56568
G1 X65.169 Y62.493 E41.59688
G1 X64.631 Y62.182 E41.62788
G1 X64.186 Y61.738 E41.65924
G1 X63.872 Y61.192 E41.69066
G1 X63.702 Y60.558 E41.72341
G1 X63.044 Y55.564 E41.97472
G1 X53.129 Y56.866 E42.47363
G1 X52.932 Y56.891 E42.48353
G1 X52.957 Y57.088 E42.48994
G1 X53.271 Y59.472 E42.6099
G1 X54.502 Y59.472 E42.67132
G1 X55.106 Y59.634 E42.70252
G1 X55.644 Y59.945 E42.73352
G1 X56.091 Y60.392 E42.76506
G1 X56.403 Y60.931 E42.79613
G1 X56.563 Y61.532 E42.82716
G1 X56.563 Y62.162 E42.85859
G1 X56.402 Y62.765 E42.88973
G1 X56.09 Y63.304 E42.9208
G1 X55.647 Y63.747 E42.95205
G1 X55.105 Y64.06 E42.98328
G1 X54.503 Y64.221 E43.01437
G1 X53.875 Y64.221 E43.0457
G1 X53.272 Y64.059 E43.07685
G1 X52.731 Y63.747 E43.10801
G1 X52.289 Y63.305 E43.13919
G1 X51.976 Y62.764 E43.17037
G1 X51.804 Y62.124 E43.20344
G1 X51.146 Y57.126 E43.45494
G1 X41.23 Y58.428 E43.9539
G1 X41.033 Y58.453 E43.9638
G1 X41.059 Y58.65 E43.9702
G1 X41.374 Y61.039 E44.09042
G1 X42.606 Y61.039 E44.15188
G1 X43.207 Y61.199 E44.18291
G1 X43.746 Y61.511 E44.21398
G1 X44.193 Y61.958 E44.24552
G1 X44.504 Y62.496 E44.27653
G1 X44.666 Y63.098 E44.30763
G1 X44.666 Y63.727 E44.33901
G1 X44.504 Y64.331 E44.37021
G1 X44.193 Y64.868 E44.40117
G1 X43.746 Y65.315 E44.43271
G1 X43.207 Y65.627 E44.46378
G1 X42.607 Y65.787 E44.49476
G1 X41.98 Y65.787 E44.52604
G1 X41.371 Y65.625 E44.55748
G1 X40.833 Y65.313 E44.58851
G1 X40.391 Y64.871 E44.61969
G1 X40.077 Y64.329 E44.65094
