;FLAVOR:Marlin
;TIME:5296
;Filament used: 3.77048m
;Layer height: 0.28
;MINX:164.428
;MINY:2.308
;MINZ:0.28
;MAXX:299.828
;MAXY:185.705
;MAXZ:1.12
;Generated with Cura_SteamEngine 4.5.0
M140 S60
M105
M190 S60
M104 S220
M105
M109 S220
M82 ;absolute extrusion mode
M201 X500.00 Y500.00 Z100.00 E5000.00 ;Setup machine max acceleration
M203 X500.00 Y500.00 Z10.00 E50.00 ;Setup machine max feedrate
M204 P500.00 R1000.00 T500.00 ;Setup Print/Retract/Travel acceleration
M205 X8.00 Y8.00 Z0.40 E5.00 ;Setup Jerk
M220 S100 ;Reset Feedrate
M221 S100 ;Reset Flowrate

G28 ;Home

G92 E0 ;Reset Extruder
G1 Z2.0 F3000 ;Move Z Axis up
G1 X10.1 Y20 Z0.28 F5000.0 ;Move to start position
G1 X10.1 Y200.0 Z0.28 F1500.0 E15 ;Draw the first line
G1 X10.4 Y200.0 Z0.28 F5000.0 ;Move to side a little
G1 X10.4 Y20 Z0.28 F1500.0 E30 ;Draw the second line
G92 E0 ;Reset Extruder
G1 Z2.0 F3000 ;Move Z Axis up

G92 E0
G92 E0
G1 F2700 E-5
;LAYER_COUNT:4
;LAYER:0
M107
G0 F6000 X164.489 Y17.393 Z0.28
;TYPE:SKIRT
G1 F2700 E0
G1 F1200 X164.622 Y16.465 E0.04365
G1 X164.762 Y15.824 E0.0742
G1 X165.025 Y14.816 E0.12271
G1 X165.315 Y13.924 E0.16639
G1 X165.681 Y13.061 E0.21004
G1 X166.001 Y12.437 E0.24269
G1 X166.532 Y11.5 E0.29284
G1 X167.044 Y10.714 E0.33652
G1 X167.621 Y9.975 E0.38018
G1 X168.085 Y9.464 E0.41232
G1 X168.822 Y8.716 E0.46121
G1 X169.519 Y8.088 E0.5049
G1 X170.267 Y7.522 E0.54858
G1 X170.858 Y7.141 E0.58132
G1 X171.775 Y6.602 E0.63085
G1 X172.611 Y6.177 E0.67452
G1 X173.48 Y5.824 E0.71819
G1 X174.169 Y5.604 E0.75187
G1 X174.708 Y5.451 E0.77796
G1 X175.221 Y5.317 E0.80265
G1 X176.062 Y5.139 E0.84268
G1 X176.343 Y5.091 E0.85595
G1 X176.749 Y5.029 E0.87508
G1 X177.654 Y4.909 E0.91759
G1 X196.181 Y2.47 E1.78772
G1 X196.865 Y2.39 E1.81979
G1 X197.731 Y2.324 E1.86023
G1 X197.971 Y2.315 E1.87142
G1 X198.553 Y2.308 E1.89852
G1 X199.071 Y2.316 E1.92264
G1 X200.007 Y2.371 E1.9663
G1 X200.587 Y2.445 E1.99353
G1 X201.593 Y2.602 E2.04094
G1 X202.647 Y2.782 E2.09073
G1 X205.127 Y3.134 E2.20736
G1 X207.605 Y3.414 E2.32348
G1 X210.141 Y3.629 E2.44199
G1 X212.642 Y3.769 E2.55863
G1 X215.172 Y3.84 E2.67649
G1 X217.695 Y3.838 E2.79397
G1 X220.185 Y3.767 E2.90996
G1 X222.722 Y3.622 E3.02829
G1 X223.809 Y3.535 E3.07906
G1 X224.21 Y3.51 E3.09777
G1 X224.601 Y3.493 E3.116
G1 X225.25 Y3.484 E3.14622
G1 X225.766 Y3.492 E3.17025
G1 X226.702 Y3.547 E3.21391
G1 X227.288 Y3.622 E3.24142
G1 X228.235 Y3.771 E3.28606
G1 X229.281 Y3.95 E3.33547
G1 X231.826 Y4.312 E3.45517
G1 X234.268 Y4.59 E3.56961
G1 X236.831 Y4.807 E3.68938
G1 X239.29 Y4.947 E3.80407
G1 X241.848 Y5.019 E3.92323
G1 X244.335 Y5.019 E4.03904
G1 X246.894 Y4.947 E4.15824
G1 X249.388 Y4.805 E4.27456
G1 X251.583 Y4.625 E4.37711
G1 X252.183 Y4.588 E4.4051
G1 X252.421 Y4.58 E4.41619
G1 X252.962 Y4.575 E4.44138
G1 X253.478 Y4.583 E4.46541
G1 X254.414 Y4.638 E4.50907
G1 X254.998 Y4.713 E4.53649
G1 X255.876 Y4.851 E4.57787
G1 X257.015 Y5.047 E4.63169
G1 X259.519 Y5.403 E4.74946
G1 X262.033 Y5.691 E4.86729
G1 X264.52 Y5.902 E4.98351
G1 X267.053 Y6.047 E5.10165
G1 X269.541 Y6.118 E5.21755
G1 X272.065 Y6.12 E5.33508
G1 X274.585 Y6.049 E5.45246
G1 X277.145 Y5.905 E5.57186
G1 X278.775 Y5.775 E5.648
G1 X279.992 Y5.667 E5.70489
G1 X280.573 Y5.631 E5.73199
G1 X280.798 Y5.623 E5.74248
G1 X281.364 Y5.617 E5.76884
G1 X281.867 Y5.625 E5.79226
G1 X282.803 Y5.68 E5.83592
G1 X283.731 Y5.815 E5.87959
G1 X284.36 Y5.952 E5.90956
G1 X285.389 Y6.22 E5.95907
G1 X286.281 Y6.511 E6.00276
G1 X287.144 Y6.877 E6.04641
G1 X287.767 Y7.197 E6.07903
G1 X288.512 Y7.616 E6.11883
G1 X288.707 Y7.732 E6.12939
G1 X289.492 Y8.246 E6.17308
G1 X290.23 Y8.824 E6.21673
G1 X290.726 Y9.275 E6.24795
G1 X291.472 Y10.009 E6.29668
G1 X292.099 Y10.706 E6.34033
G1 X292.665 Y11.454 E6.38401
G1 X293.056 Y12.062 E6.41767
G1 X293.348 Y12.55 E6.44415
G1 X293.795 Y13.375 E6.48784
G1 X294.004 Y13.828 E6.51108
G1 X294.146 Y14.156 E6.52772
G1 X294.481 Y15.032 E6.57139
G1 X294.663 Y15.632 E6.60058
G1 X294.822 Y16.215 E6.62872
G1 X295.03 Y17.129 E6.67237
G1 X295.16 Y18.057 E6.716
G1 X295.251 Y19.028 E6.76142
G1 X295.335 Y20.089 E6.81098
G1 X295.605 Y22.602 E6.92866
G1 X295.945 Y25.095 E7.04582
G1 X296.365 Y27.634 E7.16566
G1 X296.558 Y28.705 E7.21633
G1 X296.683 Y29.618 E7.25924
G1 X296.764 Y30.485 E7.29979
G1 X296.866 Y31.763 E7.35949
G1 X297.138 Y34.265 E7.47668
G1 X297.48 Y36.754 E7.59366
G1 X297.978 Y39.64 E7.73003
G1 X298.103 Y40.398 E7.76581
G1 X298.214 Y41.304 E7.80831
G1 X298.265 Y41.934 E7.83774
G1 X298.506 Y44.515 E7.95844
G1 X298.813 Y47.029 E8.07638
G1 X299.19 Y49.527 E8.19401
G1 X299.576 Y51.695 E8.29655
G1 X299.718 Y52.842 E8.35037
G1 X299.742 Y53.179 E8.3661
G1 X299.77 Y53.939 E8.40151
G1 X299.771 Y54.471 E8.42628
G1 X299.719 Y55.56 E8.47705
G1 X299.443 Y58.39 E8.60945
G1 X299.271 Y60.894 E8.72632
G1 X299.169 Y63.416 E8.84385
G1 X299.139 Y65.904 E8.95971
G1 X299.181 Y68.463 E9.07889
G1 X299.292 Y70.948 E9.19472
G1 X299.477 Y73.484 E9.31312
G1 X299.756 Y76.223 E9.44132
G1 X299.8 Y76.808 E9.46863
G1 X299.815 Y77.119 E9.48313
G1 X299.828 Y77.649 E9.50782
G1 X299.828 Y113.387 E11.17193
G1 X299.818 Y114.084 E11.20439
G1 X299.767 Y114.995 E11.24687
G1 X299.628 Y116.405 E11.31285
G1 X299.54 Y117.208 E11.35046
G1 X299.334 Y119.765 E11.46991
G1 X299.203 Y122.26 E11.58625
G1 X299.144 Y124.778 E11.70353
G1 X299.154 Y127.301 E11.82101
G1 X299.236 Y129.797 E11.9373
G1 X299.391 Y132.327 E12.05533
G1 X299.63 Y134.988 E12.17973
G1 X299.698 Y135.64 E12.21026
G1 X299.744 Y136.24 E12.23828
G1 X299.757 Y136.504 E12.25059
G1 X299.77 Y137.024 E12.27481
G1 X299.771 Y137.554 E12.29949
G1 X299.733 Y138.491 E12.34315
G1 X299.625 Y139.363 E12.38407
G1 X299.489 Y140.177 E12.4225
G1 X299.229 Y141.593 E12.48953
G1 X298.846 Y144.07 E12.60624
G1 X298.534 Y146.552 E12.72273
G1 X298.207 Y150.084 E12.88789
G1 X298.069 Y151.08 E12.93471
G1 X298 Y151.453 E12.95238
G1 X297.56 Y154.017 E13.07351
G1 X297.203 Y156.529 E13.19166
G1 X296.914 Y159.079 E13.31116
G1 X296.79 Y160.432 E13.37442
G1 X296.695 Y161.576 E13.42787
G1 X296.579 Y162.503 E13.47138
G1 X296.439 Y163.321 E13.51002
G1 X296.186 Y164.7 E13.5753
G1 X295.796 Y167.234 E13.69469
G1 X295.49 Y169.673 E13.80915
G1 X295.168 Y173.158 E13.97211
G1 X294.989 Y174.366 E14.02898
G1 X294.948 Y174.565 E14.03844
G1 X294.816 Y175.129 E14.06541
G1 X294.664 Y175.71 E14.09338
G1 X294.388 Y176.606 E14.13703
G1 X294.037 Y177.476 E14.18071
G1 X293.736 Y178.088 E14.21247
G1 X293.609 Y178.327 E14.22507
G1 X293.335 Y178.811 E14.25097
G1 X293.085 Y179.229 E14.27365
G1 X292.57 Y180.013 E14.31733
G1 X291.99 Y180.75 E14.361
G1 X291.564 Y181.218 E14.39047
G1 X291.008 Y181.788 E14.42755
G1 X290.837 Y181.955 E14.43868
G1 X290.138 Y182.581 E14.48237
G1 X289.139 Y183.312 E14.54001
G1 X288.894 Y183.471 E14.55361
G1 X288.408 Y183.769 E14.58016
G1 X287.951 Y184.033 E14.60473
G1 X287.12 Y184.467 E14.64839
G1 X286.255 Y184.829 E14.69205
G1 X285.308 Y185.13 E14.73832
G1 X284.628 Y185.313 E14.77111
G1 X283.712 Y185.518 E14.81482
G1 X282.397 Y185.673 E14.87647
G1 X282.187 Y185.685 E14.88627
G1 X281.598 Y185.703 E14.91371
G1 X281.039 Y185.705 E14.93974
G1 X279.742 Y185.633 E15.00022
G1 X278.679 Y185.509 E15.05006
G1 X274.596 Y184.972 E15.24181
G1 X272.011 Y184.668 E15.36301
G1 X269.502 Y184.445 E15.4803
G1 X266.984 Y184.294 E15.59776
G1 X264.497 Y184.215 E15.71363
G1 X261.967 Y184.206 E15.83143
G1 X259.452 Y184.267 E15.94858
G1 X256.943 Y184.4 E16.06557
G1 X255.57 Y184.517 E16.12973
G1 X253.865 Y184.638 E16.20933
G1 X253.632 Y184.649 E16.22019
G1 X253.134 Y184.661 E16.24338
G1 X252.613 Y184.662 E16.26764
G1 X251.344 Y184.591 E16.32683
G1 X250.29 Y184.469 E16.37623
G1 X246.275 Y183.941 E16.5648
G1 X243.69 Y183.637 E16.686
G1 X241.18 Y183.414 E16.80333
G1 X238.662 Y183.263 E16.92079
G1 X236.175 Y183.184 E17.03665
G1 X233.646 Y183.175 E17.15442
G1 X231.143 Y183.236 E17.271
G1 X227.705 Y183.433 E17.43135
G1 X226.175 Y183.546 E17.50279
G1 X225.921 Y183.558 E17.51463
G1 X225.423 Y183.57 E17.53782
G1 X224.901 Y183.571 E17.56213
G1 X223.637 Y183.501 E17.62108
G1 X222.305 Y183.342 E17.68354
G1 X218.489 Y182.84 E17.86276
G1 X215.95 Y182.542 E17.9818
G1 X213.42 Y182.318 E18.10007
G1 X210.92 Y182.168 E18.21669
G1 X208.422 Y182.089 E18.33306
G1 X205.897 Y182.08 E18.45064
G1 X203.377 Y182.142 E18.56802
G1 X199.36 Y182.376 E18.75538
G1 X198.741 Y182.395 E18.78422
G1 X198.217 Y182.396 E18.80862
G1 X196.942 Y182.324 E18.86808
G1 X195.576 Y182.161 E18.93214
G1 X177.01 Y179.716 E19.80411
G1 X176.356 Y179.621 E19.83489
G1 X175.401 Y179.439 E19.88016
G1 X175.19 Y179.389 E19.89025
G1 X174.774 Y179.281 E19.91027
G1 X174.293 Y179.147 E19.93352
G1 X173.401 Y178.858 E19.97718
G1 X172.537 Y178.493 E20.02085
G1 X172.109 Y178.278 E20.04315
G1 X171.823 Y178.127 E20.05821
G1 X171.461 Y177.927 E20.07747
G1 X171.059 Y177.695 E20.09908
G1 X170.267 Y177.192 E20.14277
G1 X169.521 Y176.624 E20.18643
G1 X169.051 Y176.21 E20.2156
G1 X168.841 Y176.014 E20.22897
G1 X168.474 Y175.654 E20.25291
G1 X168.152 Y175.324 E20.27438
G1 X167.526 Y174.626 E20.31804
G1 X166.962 Y173.876 E20.36173
G1 X166.606 Y173.324 E20.39232
G1 X166.346 Y172.893 E20.41576
G1 X166.043 Y172.363 E20.44418
G1 X165.621 Y171.526 E20.48783
G1 X165.272 Y170.655 E20.53152
G1 X165.076 Y170.044 E20.5614
G1 X164.91 Y169.468 E20.58932
G1 X164.775 Y168.959 E20.61384
G1 X164.584 Y168.041 E20.6575
G1 X164.472 Y167.11 E20.70116
G1 X164.441 Y166.45 E20.73193
G1 X164.432 Y165.93 E20.75614
G1 X164.435 Y165.313 E20.78488
G1 X164.49 Y164.377 E20.82853
G1 X164.614 Y163.505 E20.86955
G1 X164.7 Y163.037 E20.8917
G1 X165.146 Y160.432 E21.01477
G1 X165.498 Y157.954 E21.13131
G1 X165.784 Y155.434 E21.24941
G1 X165.976 Y153.176 E21.35493
G1 X166.083 Y152.318 E21.39519
G1 X166.211 Y151.541 E21.43186
G1 X166.661 Y148.917 E21.55583
G1 X167.017 Y146.409 E21.67378
G1 X167.303 Y143.892 E21.79174
G1 X167.498 Y141.6 E21.89885
G1 X167.616 Y140.674 E21.94231
G1 X168.181 Y137.379 E22.09798
G1 X168.533 Y134.903 E22.21444
G1 X168.817 Y132.401 E22.33169
G1 X169.012 Y130.11 E22.43875
G1 X169.132 Y129.18 E22.48242
G1 X169.222 Y128.714 E22.50451
G1 X169.367 Y128.044 E22.53644
G1 X169.528 Y127.394 E22.56762
G1 X169.598 Y127.145 E22.57966
G1 X169.897 Y126.237 E22.62417
G1 X170.249 Y125.307 E22.67048
G1 X170.616 Y124.368 E22.71742
G1 X171.481 Y121.959 E22.83661
G1 X172.256 Y119.594 E22.95249
G1 X172.976 Y117.166 E23.07042
G1 X173.627 Y114.72 E23.18828
G1 X174.196 Y112.311 E23.30354
G1 X174.717 Y109.789 E23.42345
G1 X175.149 Y107.338 E23.53934
G1 X175.512 Y104.884 E23.65485
G1 X175.816 Y102.334 E23.77443
G1 X176.04 Y99.859 E23.89015
G1 X176.196 Y97.344 E24.00748
G1 X176.284 Y94.763 E24.12774
G1 X176.3 Y93.134 E24.20359
G1 X176.301 Y91.786 E24.26636
G1 X176.266 Y89.177 E24.38786
G1 X176.162 Y86.691 E24.50372
G1 X175.984 Y84.16 E24.62186
G1 X175.74 Y81.681 E24.73785
G1 X175.416 Y79.137 E24.85727
G1 X175.032 Y76.677 E24.9732
G1 X174.573 Y74.196 E25.09069
G1 X174.047 Y71.747 E25.20733
G1 X173.454 Y69.32 E25.32366
G1 X172.782 Y66.872 E25.44187
G1 X172.045 Y64.458 E25.5594
G1 X171.246 Y62.085 E25.67599
G1 X170.329 Y59.593 E25.79963
G1 X169.946 Y58.601 E25.84915
G1 X169.634 Y57.668 E25.89496
G1 X169.473 Y57.105 E25.92222
G1 X169.319 Y56.517 E25.95053
G1 X169.131 Y55.598 E25.99421
G1 X169.024 Y54.7 E26.03632
G1 X168.993 Y54.303 E26.05486
G1 X168.753 Y51.692 E26.17695
G1 X168.454 Y49.203 E26.29368
G1 X168.081 Y46.711 E26.41101
G1 X167.642 Y44.234 E26.52815
G1 X167.508 Y43.187 E26.5773
G1 X167.472 Y42.73 E26.59865
G1 X167.224 Y40.068 E26.72314
G1 X166.917 Y37.54 E26.84171
G1 X166.549 Y35.095 E26.95685
G1 X166.123 Y32.699 E27.07016
G1 X165.988 Y31.647 E27.11955
G1 X165.951 Y31.188 E27.14099
G1 X165.706 Y28.546 E27.26454
G1 X165.403 Y26.061 E27.38111
G1 X165.029 Y23.574 E27.49822
G1 X164.792 Y22.199 E27.56319
G1 X164.608 Y21.18 E27.61141
G1 X164.481 Y20.251 E27.65507
G1 X164.436 Y19.479 E27.69108
G1 X164.43 Y19.218 E27.70323
G1 X164.428 Y18.802 E27.7226
G1 X164.435 Y18.329 E27.74463
G1 X164.489 Y17.393 E27.78829
G0 F6000 X164.889 Y17.416
G1 F1200 X165.022 Y16.505 E27.83116
G1 X165.15 Y15.921 E27.859
G1 X165.41 Y14.924 E27.90697
G1 X165.696 Y14.049 E27.94984
G1 X166.056 Y13.201 E27.99273
G1 X166.35 Y12.631 E28.0226
G1 X166.876 Y11.704 E28.07223
G1 X167.379 Y10.933 E28.11509
G1 X167.948 Y10.209 E28.15797
G1 X168.373 Y9.742 E28.18737
G1 X169.102 Y9.001 E28.23578
G1 X169.786 Y8.386 E28.27861
G1 X170.522 Y7.832 E28.3215
G1 X171.064 Y7.484 E28.3515
G1 X171.971 Y6.95 E28.40051
G1 X172.792 Y6.534 E28.44336
G1 X173.646 Y6.19 E28.48623
G1 X174.278 Y5.989 E28.51711
G1 X175.319 Y5.705 E28.56736
G1 X176.129 Y5.533 E28.60592
G1 X176.41 Y5.485 E28.61919
G1 X176.802 Y5.426 E28.63765
G1 X177.707 Y5.306 E28.68016
G1 X196.228 Y2.868 E29.55001
G1 X196.912 Y2.788 E29.58208
G1 X197.746 Y2.723 E29.62103
G1 X197.986 Y2.714 E29.63222
G1 X198.547 Y2.708 E29.65834
G1 X199.065 Y2.716 E29.68246
G1 X199.984 Y2.77 E29.72533
G1 X200.526 Y2.84 E29.75078
G1 X201.526 Y2.997 E29.79791
G1 X202.561 Y3.174 E29.84681
G1 X205.062 Y3.529 E29.96443
G1 X207.597 Y3.815 E30.08322
G1 X210.119 Y4.029 E30.20108
G1 X212.609 Y4.169 E30.3172
G1 X215.161 Y4.24 E30.43608
G1 X217.672 Y4.238 E30.553
G1 X220.217 Y4.165 E30.67156
G1 X222.779 Y4.019 E30.79105
G1 X223.841 Y3.934 E30.84066
G1 X224.228 Y3.91 E30.85871
G1 X224.619 Y3.893 E30.87694
G1 X225.243 Y3.884 E30.906
G1 X225.759 Y3.892 E30.93003
G1 X226.678 Y3.947 E30.9729
G1 X227.227 Y4.017 E30.99867
G1 X228.168 Y4.165 E31.04302
G1 X229.229 Y4.347 E31.09315
G1 X231.761 Y4.707 E31.21223
G1 X234.26 Y4.991 E31.32935
G1 X236.773 Y5.204 E31.44678
G1 X239.292 Y5.347 E31.56427
G1 X241.837 Y5.419 E31.68282
G1 X244.346 Y5.419 E31.79965
G1 X246.892 Y5.347 E31.91825
G1 X249.445 Y5.202 E32.03732
G1 X250.997 Y5.078 E32.10982
G1 X251.618 Y5.023 E32.13885
G1 X252.197 Y4.988 E32.16586
G1 X252.435 Y4.98 E32.17695
G1 X252.955 Y4.975 E32.20116
G1 X253.471 Y4.983 E32.22519
G1 X254.39 Y5.038 E32.26806
G1 X254.937 Y5.108 E32.29374
G1 X255.809 Y5.245 E32.33484
G1 X256.968 Y5.444 E32.3896
G1 X259.449 Y5.798 E32.50629
G1 X261.988 Y6.087 E32.62528
G1 X264.503 Y6.302 E32.74282
G1 X267.018 Y6.445 E32.86012
G1 X269.565 Y6.518 E32.97876
G1 X272.076 Y6.52 E33.09569
G1 X274.62 Y6.449 E33.21419
G1 X277.157 Y6.306 E33.33251
G1 X278.765 Y6.177 E33.40763
G1 X280.028 Y6.065 E33.46667
G1 X280.587 Y6.031 E33.49275
G1 X280.812 Y6.023 E33.50323
G1 X281.358 Y6.017 E33.52866
G1 X281.861 Y6.025 E33.55208
G1 X282.78 Y6.08 E33.59495
G1 X283.69 Y6.214 E33.63778
G1 X284.263 Y6.34 E33.6651
G1 X284.787 Y6.471 E33.69025
G1 X285.281 Y6.606 E33.7141
G1 X286.157 Y6.892 E33.75701
G1 X287.003 Y7.253 E33.79984
G1 X287.573 Y7.547 E33.8297
G1 X288.307 Y7.96 E33.86892
G1 X288.502 Y8.076 E33.87948
G1 X289.272 Y8.581 E33.92236
G1 X289.996 Y9.15 E33.96524
G1 X290.448 Y9.563 E33.99375
G1 X291.186 Y10.289 E34.04195
G1 X291.802 Y10.974 E34.08485
G1 X292.355 Y11.71 E34.12772
G1 X292.713 Y12.267 E34.15855
G1 X293.005 Y12.755 E34.18503
G1 X293.443 Y13.565 E34.22791
G1 X293.637 Y13.987 E34.24953
G1 X293.779 Y14.315 E34.26618
G1 X294.107 Y15.175 E34.30904
G1 X294.277 Y15.737 E34.33638
G1 X294.436 Y16.32 E34.36451
G1 X294.64 Y17.218 E34.40739
G1 X294.761 Y18.095 E34.44862
G1 X294.853 Y19.06 E34.49376
G1 X294.94 Y20.16 E34.54514
G1 X295.206 Y22.632 E34.66091
G1 X295.548 Y25.143 E34.77891
G1 X295.989 Y27.807 E34.90465
G1 X296.164 Y28.776 E34.9505
G1 X296.285 Y29.656 E34.99186
G1 X296.365 Y30.517 E35.03212
G1 X296.468 Y31.806 E35.09233
G1 X296.742 Y34.327 E35.21041
G1 X297.08 Y36.787 E35.32604
G1 X297.584 Y39.705 E35.46392
G1 X297.709 Y40.463 E35.4997
G1 X297.816 Y41.336 E35.54065
G1 X297.87 Y42.003 E35.57181
G1 X298.109 Y44.568 E35.69177
G1 X298.419 Y47.101 E35.81059
G1 X298.793 Y49.579 E35.92729
G1 X299.182 Y51.765 E36.03067
G1 X299.319 Y52.87 E36.08252
G1 X299.343 Y53.207 E36.09825
G1 X299.37 Y53.94 E36.13241
G1 X299.371 Y54.472 E36.15718
G1 X299.321 Y55.521 E36.20608
G1 X299.044 Y58.357 E36.33877
G1 X298.87 Y60.887 E36.45685
G1 X298.769 Y63.395 E36.57373
G1 X298.739 Y65.906 E36.69066
G1 X298.781 Y68.488 E36.81091
G1 X298.891 Y70.959 E36.92608
G1 X299.078 Y73.518 E37.04555
G1 X299.358 Y76.263 E37.17404
G1 X299.401 Y76.827 E37.20038
G1 X299.416 Y77.138 E37.21487
