;FLAVOR:Marlin
;TIME:4350
;Filament used: 3.61253m
;Layer height: 0.2
;MINX:41.008
;MINY:29.936
;MINZ:0.3
;MAXX:160.228
;MAXY:196.441
;MAXZ:1.1
;Generated with Cura_SteamEngine 4.5.0
M104 S200
M105
M109 S200
M82 ;absolute extrusion mode
G21 ;metric values
G90 ;absolute positioning
M82 ;set extruder to absolute mode
M106 ;start with the fan on for filament cooling
G28 X0 Y0 ;move X/Y to min endstops
G28 Z0 ;move Z to min endstops
G29 ;run auto bed leveling
G1 Z15.0 F9000 ;move the platform down 15mm
G92 E0 ;zero the extruded length
G1 F200 E10 ;extrude 10mm of feed stock
G92 E0 ;zero the extruded length again
G1 F9000
;Put printing message on LCD screen
M117 Printing...
G92 E0
G92 E0
G1 F2700 E-0.7
;LAYER_COUNT:5
;LAYER:0
M107
G0 F3600 X42.627 Y36.582 Z0.3
;TYPE:SKIRT
G1 F2700 E0
G1 F1500 X42.992 Y36.195 E0.02654
G1 X43.371 Y35.86 E0.05178
G1 X44.13 Y35.384 E0.09647
G1 X44.688 Y35.118 E0.12731
G1 X45.217 Y34.926 E0.15539
G1 X46.015 Y34.712 E0.19661
G1 X47.073 Y34.541 E0.25008
G1 X47.854 Y34.433 E0.28941
G1 X65.805 Y32.07 E1.19272
G1 X66.534 Y31.985 E1.22933
G1 X67.174 Y31.954 E1.2613
G1 X67.718 Y31.964 E1.28845
G1 X68.765 Y32.008 E1.34073
G1 X69.34 Y32.04 E1.36946
G1 X72.088 Y32.121 E1.50662
G1 X74.805 Y32.124 E1.64217
G1 X77.559 Y32.049 E1.77962
G1 X80.27 Y31.899 E1.91508
G1 X83.019 Y31.668 E2.05271
G1 X86.186 Y31.304 E2.21175
G1 X93.385 Y30.356 E2.57401
G1 X94.103 Y30.272 E2.61008
G1 X94.727 Y30.242 E2.64124
G1 X95.488 Y30.269 E2.67923
G1 X98.102 Y30.562 E2.81046
G1 X100.865 Y30.796 E2.9488
G1 X103.581 Y30.949 E3.08452
G1 X106.332 Y31.026 E3.22182
G1 X109.05 Y31.026 E3.35742
G1 X111.802 Y30.947 E3.49478
G1 X114.552 Y30.79 E3.6322
G1 X117.239 Y30.562 E3.76674
G1 X120.311 Y30.207 E3.92102
G1 X121.392 Y30.076 E3.97534
G1 X122.036 Y30.044 E4.00751
G1 X122.813 Y30.073 E4.0463
G1 X125.815 Y30.415 E4.19704
G1 X128.556 Y30.647 E4.33428
G1 X131.272 Y30.8 E4.47
G1 X134.024 Y30.877 E4.60735
G1 X136.741 Y30.877 E4.7429
G1 X139.493 Y30.798 E4.88026
G1 X142.243 Y30.641 E5.01768
G1 X144.922 Y30.413 E5.15182
G1 X148.785 Y29.965 E5.34583
G1 X149.405 Y29.936 E5.3768
G1 X150.52 Y30.023 E5.4326
G1 X151.222 Y30.183 E5.46852
G1 X151.705 Y30.334 E5.49377
G1 X152.613 Y30.786 E5.54437
G1 X153.265 Y31.195 E5.58277
G1 X153.873 Y31.76 E5.62418
G1 X154.248 Y32.195 E5.65283
G1 X154.616 Y32.708 E5.68433
G1 X154.934 Y33.217 E5.71427
G1 X155.242 Y33.902 E5.75174
G1 X155.474 Y34.701 E5.79325
G1 X155.571 Y35.236 E5.82037
G1 X155.634 Y35.895 E5.8534
G1 X155.76 Y37.441 E5.93079
G1 X156.059 Y40.171 E6.0678
G1 X156.436 Y42.892 E6.20485
G1 X156.903 Y45.676 E6.34569
G1 X157.052 Y46.491 E6.38702
G1 X157.14 Y47.28 E6.42663
G1 X157.29 Y49.092 E6.51734
G1 X157.596 Y51.862 E6.65637
G1 X157.964 Y54.502 E6.78936
G1 X158.434 Y57.291 E6.93046
G1 X158.572 Y58.04 E6.96846
G1 X158.696 Y59.342 E7.03371
G1 X158.965 Y62.106 E7.17226
G1 X159.311 Y64.844 E7.30994
G1 X159.724 Y67.516 E7.44483
G1 X160.033 Y69.204 E7.53045
G1 X160.153 Y70.042 E7.57268
G1 X160.171 Y70.906 E7.6158
G1 X160.112 Y71.633 E7.65219
G1 X159.847 Y74.414 E7.79156
G1 X159.667 Y77.127 E7.92721
G1 X159.56 Y79.879 E8.06461
G1 X159.533 Y82.623 E8.20152
G1 X159.581 Y85.301 E8.33514
G1 X159.712 Y88.102 E8.47504
G1 X159.914 Y90.803 E8.61017
G1 X160.186 Y93.422 E8.74153
G1 X160.221 Y93.977 E8.76928
G1 X160.228 Y129.794 E10.5562
G1 X160.218 Y130.492 E10.59102
G1 X160.064 Y132.171 E10.67514
G1 X159.954 Y133.2 E10.72677
G1 X159.74 Y135.913 E10.86254
G1 X159.601 Y138.668 E11.00016
G1 X159.54 Y141.384 E11.1357
G1 X159.557 Y144.135 E11.27295
G1 X159.651 Y146.856 E11.40878
G1 X159.823 Y149.6 E11.54595
G1 X160.145 Y153.019 E11.71728
G1 X160.171 Y153.988 E11.76564
G1 X160.127 Y154.529 E11.79272
G1 X160.04 Y155.049 E11.81902
G1 X159.714 Y156.854 E11.91053
G1 X159.306 Y159.522 E12.04519
G1 X158.971 Y162.236 E12.18162
G1 X158.773 Y164.481 E12.29406
G1 X158.639 Y165.893 E12.36482
G1 X158.437 Y167.065 E12.42415
G1 X157.977 Y169.806 E12.56281
G1 X157.601 Y172.522 E12.69961
G1 X157.297 Y175.287 E12.83838
G1 X157.121 Y177.357 E12.94203
G1 X157.025 Y178 E12.97446
G1 X156.657 Y180.044 E13.07808
G1 X156.246 Y182.763 E13.21527
G1 X155.919 Y185.445 E13.35007
G1 X155.731 Y187.591 E13.45754
G1 X155.6 Y188.973 E13.5268
G1 X155.503 Y189.532 E13.5551
G1 X155.342 Y190.168 E13.58784
G1 X155.107 Y190.794 E13.6212
G1 X154.701 Y191.555 E13.66423
G1 X154.277 Y192.148 E13.7006
G1 X153.896 Y192.57 E13.72896
G1 X153.647 Y192.831 E13.74696
G1 X153.079 Y193.297 E13.78361
G1 X152.338 Y193.745 E13.82681
G1 X151.726 Y194.02 E13.86029
G1 X150.844 Y194.286 E13.90625
G1 X150.141 Y194.404 E13.94181
G1 X149.279 Y194.424 E13.98483
G1 X145.299 Y194.011 E14.18446
G1 X142.563 Y193.793 E14.32139
G1 X139.812 Y193.651 E14.45882
G1 X137.095 Y193.588 E14.59441
G1 X134.341 Y193.603 E14.73181
G1 X131.628 Y193.693 E14.86723
G1 X128.874 Y193.864 E15.0049
G1 X126.17 Y194.108 E15.14035
G1 X122.986 Y194.493 E15.30035
G1 X122.397 Y194.528 E15.32979
G1 X121.543 Y194.513 E15.3724
G1 X118.269 Y194.162 E15.53668
G1 X115.557 Y193.946 E15.67241
G1 X112.802 Y193.805 E15.81004
G1 X110.086 Y193.743 E15.94558
G1 X107.334 Y193.758 E16.08288
G1 X104.614 Y193.85 E16.21865
G1 X101.869 Y194.02 E16.35587
G1 X99.131 Y194.268 E16.49302
G1 X95.844 Y194.669 E16.65823
G1 X95.151 Y194.725 E16.69292
G1 X94.602 Y194.729 E16.72031
G1 X93.527 Y194.679 E16.774
G1 X92.455 Y194.607 E16.8276
G1 X89.711 Y194.504 E16.96459
G1 X86.956 Y194.476 E17.10205
G1 X84.24 Y194.526 E17.23757
G1 X81.524 Y194.654 E17.37323
G1 X78.773 Y194.861 E17.51086
G1 X76.048 Y195.143 E17.64754
G1 X73.336 Y195.502 E17.78402
G1 X70.636 Y195.938 E17.92047
G1 X68.348 Y196.367 E18.03661
G1 X67.722 Y196.431 E18.068
G1 X67.045 Y196.441 E18.10178
G1 X65.933 Y196.341 E18.15748
G1 X64.947 Y196.218 E18.20706
G1 X46.995 Y193.855 E19.11041
G1 X46.232 Y193.743 E19.14888
G1 X45.619 Y193.608 E19.1802
G1 X45.163 Y193.48 E19.20383
G1 X44.591 Y193.258 E19.23444
G1 X43.807 Y192.827 E19.27907
G1 X43.292 Y192.46 E19.31062
G1 X42.667 Y191.88 E19.35316
G1 X42.195 Y191.308 E19.39016
G1 X41.833 Y190.749 E19.42339
G1 X41.44 Y190.012 E19.46506
G1 X41.189 Y189.188 E19.50803
G1 X41.083 Y188.643 E19.53573
G1 X41.015 Y187.871 E19.5744
G1 X41.056 Y186.865 E19.62463
G1 X41.255 Y185.745 E19.68138
G1 X41.701 Y183.049 E19.81771
G1 X42.07 Y180.331 E19.95456
G1 X42.368 Y177.558 E20.0937
G1 X42.535 Y175.525 E20.19547
G1 X43.18 Y171.713 E20.38835
G1 X43.564 Y168.979 E20.52609
G1 X43.865 Y166.273 E20.66193
G1 X44.054 Y164.077 E20.77189
G1 X44.19 Y163.255 E20.81346
G1 X44.653 Y160.552 E20.95028
G1 X45.035 Y157.864 E21.08573
G1 X45.349 Y155.092 E21.22491
G1 X45.572 Y152.457 E21.35684
G1 X45.655 Y151.956 E21.38217
G1 X45.793 Y151.412 E21.41017
G1 X46.17 Y150.32 E21.46781
G1 X46.715 Y148.925 E21.54253
G1 X47.647 Y146.33 E21.68009
G1 X48.495 Y143.741 E21.81601
G1 X49.266 Y141.138 E21.95145
G1 X49.973 Y138.478 E22.08877
G1 X50.619 Y135.739 E22.22916
G1 X51.155 Y133.133 E22.3619
G1 X51.628 Y130.454 E22.49762
G1 X52.033 Y127.717 E22.63566
G1 X52.358 Y124.986 E22.77287
G1 X52.601 Y122.286 E22.90812
G1 X52.772 Y119.532 E23.04578
G1 X52.863 Y116.814 E23.18146
G1 X52.882 Y114.898 E23.27705
G1 X52.882 Y113.551 E23.34425
G1 X52.842 Y110.753 E23.48386
G1 X52.727 Y108.037 E23.61948
G1 X52.532 Y105.29 E23.75688
G1 X52.264 Y102.585 E23.89249
G1 X51.916 Y99.861 E24.0295
G1 X51.491 Y97.161 E24.16586
G1 X50.988 Y94.452 E24.30332
G1 X50.418 Y91.805 E24.43841
G1 X49.771 Y89.165 E24.57402
G1 X49.034 Y86.485 E24.71269
G1 X48.231 Y83.862 E24.84954
G1 X47.365 Y81.296 E24.98465
G1 X46.299 Y78.418 E25.13777
G1 X46.013 Y77.683 E25.17712
G1 X45.74 Y76.778 E25.22428
G1 X45.637 Y76.258 E25.25073
G1 X45.574 Y75.703 E25.27859
G1 X45.32 Y72.913 E25.41836
G1 X45.003 Y70.256 E25.55186
G1 X44.594 Y67.492 E25.69126
G1 X44.138 Y64.928 E25.82118
G1 X44.055 Y64.178 E25.85883
G1 X43.799 Y61.374 E25.9993
G1 X43.473 Y58.668 E26.13528
G1 X43.071 Y55.964 E26.27167
G1 X42.605 Y53.358 E26.40375
G1 X42.483 Y52.206 E26.46154
G1 X42.221 Y49.411 E26.6016
G1 X41.892 Y46.723 E26.7367
G1 X41.478 Y43.984 E26.8749
G1 X41.224 Y42.519 E26.94908
G1 X41.084 Y41.747 E26.98823
G1 X41.025 Y41.168 E27.01726
G1 X41.008 Y40.527 E27.04925
G1 X41.078 Y39.791 E27.08614
G1 X41.225 Y39.105 E27.12114
G1 X41.45 Y38.364 E27.15977
G1 X41.871 Y37.568 E27.2047
G1 X42.241 Y37.034 E27.23711
G1 X42.627 Y36.582 E27.26676
G1 F2700 E26.56676
;MESH:Object 10
G0 F3600 X43.555 Y41.121
G0 X44.839 Y41.077
G0 X49.335 Y39.767
G0 X51.931 Y39.427
G0 X60.741 Y86.755
G0 X60.799 Y86.674
;TYPE:WALL-INNER
G1 F2700 E27.26676
G1 F1500 X61.007 Y86.634 E27.27733
G1 X66.842 Y85.508 E27.57381
G1 X60.782 Y40.589 E29.83513
G1 X60.754 Y40.381 E29.8456
G1 X60.548 Y40.419 E29.85227
G1 X54.825 Y41.497 E30.14281
G1 X60.772 Y86.464 E32.40576
G1 X60.799 Y86.674 E32.41246
G0 F3600 X60.741 Y86.755
G0 X58.664 Y90.413
G0 X58.588 Y90.349
G1 F1500 X58.56 Y90.135 E32.42323
G1 X56.478 Y74.28 E33.22103
G1 X56.452 Y74.082 E33.23099
G1 X56.254 Y74.108 E33.23743
G1 X53.924 Y74.416 E33.35468
G1 X53.924 Y75.62 E33.41475
G1 X53.768 Y76.206 E33.445
G1 X53.513 Y76.646 E33.47038
G1 X53.066 Y77.122 E33.50295
G1 X52.514 Y77.452 E33.53504
G1 X51.94 Y77.606 E33.56469
G1 X51.427 Y77.606 E33.59028
G1 X50.831 Y77.468 E33.6208
G1 X50.27 Y77.167 E33.65257
G1 X49.87 Y76.779 E33.68037
G1 X49.505 Y76.191 E33.7149
G1 X49.378 Y75.713 E33.73957
G1 X49.357 Y75.009 E33.77471
G1 X49.486 Y74.521 E33.79989
G1 X49.793 Y73.951 E33.83219
G1 X50.178 Y73.551 E33.85989
G1 X50.69 Y73.233 E33.88996
G1 X51.387 Y73.023 E33.92628
G1 X56.23 Y72.385 E34.16998
G1 X54.964 Y62.739 E34.65535
G1 X54.938 Y62.541 E34.66531
G1 X54.74 Y62.567 E34.67175
G1 X52.405 Y62.875 E34.78925
G1 X52.405 Y64.036 E34.84717
G1 X52.258 Y64.623 E34.87736
G1 X51.987 Y65.111 E34.90521
G1 X51.576 Y65.551 E34.93525
G1 X51.028 Y65.891 E34.96742
G1 X50.504 Y66.042 E34.99463
G1 X49.895 Y66.062 E35.02503
G1 X49.273 Y65.916 E35.05691
G1 X48.752 Y65.628 E35.08661
G1 X48.286 Y65.176 E35.11899
G1 X47.989 Y64.662 E35.14861
G1 X47.858 Y64.169 E35.17406
G1 X47.837 Y63.557 E35.20461
G1 X47.996 Y62.888 E35.23892
G1 X48.291 Y62.376 E35.2684
G1 X48.654 Y62.013 E35.29401
G1 X49.246 Y61.648 E35.32871
G1 X49.853 Y61.484 E35.36008
G1 X54.714 Y60.844 E35.60469
G1 X53.449 Y51.198 E36.09005
G1 X53.423 Y51 E36.10001
G1 X53.225 Y51.026 E36.10644
G1 X50.885 Y51.334 E36.22419
G1 X50.885 Y52.497 E36.28222
G1 X50.74 Y53.082 E36.31228
G1 X50.447 Y53.608 E36.34232
G1 X50.063 Y54.006 E36.36991
G1 X49.545 Y54.329 E36.40037
G1 X48.936 Y54.512 E36.4321
G1 X48.335 Y54.523 E36.46208
G1 X47.798 Y54.39 E36.48969
G1 X47.232 Y54.086 E36.52174
G1 X46.8 Y53.667 E36.55176
G1 X46.514 Y53.193 E36.57938
G1 X46.315 Y52.53 E36.61392
G1 X46.315 Y51.937 E36.6435
G1 X46.47 Y51.36 E36.67331
G1 X46.729 Y50.91 E36.69921
G1 X47.204 Y50.407 E36.73373
G1 X47.641 Y50.154 E36.75892
G1 X48.343 Y49.942 E36.79551
G1 X53.199 Y49.303 E37.03986
G1 X51.933 Y39.656 E37.52528
G1 X51.907 Y39.458 E37.53524
G1 X51.709 Y39.484 E37.54168
G1 X49.365 Y39.793 E37.65963
G1 X49.365 Y40.912 E37.71546
G1 X49.229 Y41.506 E37.74586
G1 X48.927 Y42.068 E37.77769
G1 X48.541 Y42.468 E37.80542
G1 X48.027 Y42.787 E37.8356
G1 X47.457 Y42.961 E37.86534
G1 X46.811 Y42.981 E37.89758
G1 X46.278 Y42.849 E37.92497
G1 X45.711 Y42.545 E37.95707
G1 X45.31 Y42.157 E37.98491
G1 X44.971 Y41.61 E38.01702
G1 X44.819 Y41.08 E38.04452
G1 X44.799 Y40.476 E38.07467
G1 X44.956 Y39.808 E38.10891
G1 X45.208 Y39.373 E38.13399
G1 X45.687 Y38.863 E38.1689
G1 X46.121 Y38.612 E38.19391
G1 X46.735 Y38.426 E38.22592
G1 X48.07 Y38.238 E38.29318
G1 X66.964 Y35.751 E39.24393
G1 X67.516 Y35.751 E39.27147
G1 X68.11 Y35.889 E39.3019
G1 X68.713 Y36.214 E39.33607
G1 X69.067 Y36.568 E39.36105
G1 X69.413 Y37.126 E39.3938
G1 X69.565 Y37.654 E39.42122
G1 X69.585 Y38.305 E39.45371
G1 X69.443 Y38.877 E39.48311
G1 X69.171 Y39.368 E39.51112
G1 X68.729 Y39.839 E39.54334
G1 X68.257 Y40.122 E39.5708
G1 X67.639 Y40.309 E39.60301
G1 X67.084 Y40.32 E39.63071
G1 X66.459 Y40.173 E39.66274
G1 X65.895 Y39.86 E39.69492
G1 X65.506 Y39.471 E39.72236
G1 X65.218 Y38.992 E39.75025
G1 X64.846 Y37.755 E39.81469
G1 X62.85 Y38.017 E39.91513
G1 X62.652 Y38.042 E39.92508
G1 X62.678 Y38.24 E39.93151
G1 X63.946 Y47.888 E40.41699
G1 X68.483 Y47.292 E40.64528
G1 X69.035 Y47.292 E40.67282
G1 X69.715 Y47.453 E40.70768
G1 X70.226 Y47.748 E40.73712
G1 X70.588 Y48.11 E40.76266
G1 X70.934 Y48.668 E40.79542
G1 X71.085 Y49.192 E40.82263
G1 X71.105 Y49.798 E40.85288
G1 X70.958 Y50.426 E40.88505
G1 X70.691 Y50.908 E40.91254
G1 X70.28 Y51.348 E40.94258
G1 X69.735 Y51.686 E40.97458
G1 X69.205 Y51.838 E41.00208
G1 X68.598 Y51.858 E41.03238
G1 X67.977 Y51.713 E41.0642
G1 X67.454 Y51.424 E41.09401
G1 X67.054 Y51.037 E41.12178
G1 X66.69 Y50.447 E41.15636
G1 X66.382 Y49.294 E41.21591
G1 X64.365 Y49.559 E41.3174
G1 X64.167 Y49.584 E41.32736
G1 X64.193 Y49.782 E41.33378
G1 X65.435 Y59.232 E41.80929
G1 X65.461 Y59.43 E41.81926
G1 X65.659 Y59.404 E41.82569
G1 X70.002 Y58.832 E42.04423
G1 X70.553 Y58.832 E42.07172
G1 X71.234 Y58.994 E42.10665
G1 X71.668 Y59.244 E42.13163
G1 X72.175 Y59.721 E42.16636
G1 X72.427 Y60.159 E42.19157
G1 X72.604 Y60.74 E42.22188
G1 X72.624 Y61.387 E42.25417
G1 X72.492 Y61.921 E42.28161
G1 X72.188 Y62.487 E42.31367
G1 X71.805 Y62.885 E42.34122
G1 X71.289 Y63.205 E42.37152
G1 X70.677 Y63.39 E42.40341
G1 X70.124 Y63.401 E42.43101
G1 X69.532 Y63.264 E42.46132
G1 X68.974 Y62.964 E42.49293
G1 X68.571 Y62.576 E42.52084
G1 X68.209 Y61.99 E42.5552
G1 X67.9 Y60.834 E42.6149
G1 X65.683 Y61.126 E42.72646
G1 X66.949 Y70.773 E43.21188
G1 X66.975 Y70.971 E43.22184
G1 X67.173 Y70.945 E43.22828
G1 X71.522 Y70.373 E43.44712
G1 X72.165 Y70.373 E43.4792
G1 X72.656 Y70.504 E43.50455
G1 X73.272 Y70.836 E43.53946
G1 X73.626 Y71.19 E43.56444
G1 X73.948 Y71.708 E43.59487
G1 X74.135 Y72.326 E43.62708
G1 X74.145 Y72.876 E43.65453
G1 X74.008 Y73.467 E43.68479
G1 X73.73 Y73.989 E43.7143
G1 X73.258 Y74.49 E43.74864
G1 X72.74 Y74.789 E43.77848
G1 X72.209 Y74.931 E43.8059
G1 X71.554 Y74.942 E43.83858
G1 X71.065 Y74.811 E43.86384
G1 X70.452 Y74.481 E43.89857
G1 X70.064 Y74.093 E43.92595
G1 X69.775 Y73.613 E43.9539
G1 X69.406 Y72.377 E44.01825
G1 X67.396 Y72.641 E44.11939
G1 X67.198 Y72.666 E44.12935
G1 X67.224 Y72.864 E44.13577
G1 X69.815 Y92.6 E45.12885
G1 X73.04 Y93.936 E45.30301
G1 X73.514 Y94.3 E45.33283
G1 X73.878 Y94.774 E45.36264
G1 X74.077 Y95.255 E45.38861
G1 X74.194 Y95.977 E45.4251
G1 X74.194 Y132.433 E47.2439
G1 X74.123 Y132.983 E47.27157
G1 X73.91 Y133.548 E47.30169
G1 X73.507 Y134.107 E47.33607
G1 X73.101 Y134.418 E47.36159
G1 X72.725 Y134.596 E47.38234
G1 X69.815 Y135.802 E47.5395
G1 X67.198 Y155.734 E48.54244
G1 X69.421 Y156.03 E48.65433
G1 X69.732 Y154.86 E48.71473
G1 X69.985 Y154.421 E48.74
G1 X70.438 Y153.939 E48.77301
G1 X70.905 Y153.658 E48.8002
G1 X71.571 Y153.458 E48.83489
G1 X72.165 Y153.458 E48.86452
G1 X72.697 Y153.6 E48.89199
G1 X73.267 Y153.917 E48.92453
G1 X73.661 Y154.312 E48.95237
G1 X73.946 Y154.786 E48.97996
G1 X74.135 Y155.412 E49.01259
G1 X74.145 Y155.963 E49.04008
G1 X73.998 Y156.589 E49.07216
G1 X73.709 Y157.112 E49.10197
G1 X73.322 Y157.513 E49.12977
G1 X72.808 Y157.832 E49.15996
G1 X72.238 Y158.006 E49.18969
G1 X71.557 Y158.027 E49.22368
G1 X71.049 Y157.967 E49.2492
G1 X67.173 Y157.457 E49.44424
G1 X66.975 Y157.431 E49.4542
G1 X66.949 Y157.629 E49.46064
G1 X65.683 Y167.275 E49.94601
G1 X67.902 Y167.571 E50.05769
G1 X68.187 Y166.491 E50.11342
G1 X68.522 Y165.873 E50.14849
G1 X68.904 Y165.489 E50.17551
G1 X69.391 Y165.197 E50.20384
G1 X69.966 Y165.022 E50.23383
G1 X70.655 Y165.002 E50.26822
G1 X71.138 Y165.131 E50.29316
G1 X71.752 Y165.461 E50.32793
G1 X72.107 Y165.816 E50.35298
G1 X72.43 Y166.336 E50.38352
G1 X72.604 Y166.908 E50.41335
G1 X72.624 Y167.554 E50.44559
G1 X72.492 Y168.088 E50.47304
G1 X72.189 Y168.652 E50.50498
G1 X71.739 Y169.118 E50.5373
G1 X71.305 Y169.368 E50.56229
G1 X70.675 Y169.558 E50.59512
G1 X70.091 Y169.569 E50.62426
G1 X69.52 Y169.506 E50.65292
G1 X65.659 Y168.998 E50.8472
G1 X65.461 Y168.972 E50.85717
G1 X65.435 Y169.17 E50.8636
G1 X64.167 Y178.816 E51.34898
G1 X66.382 Y179.109 E51.46045
G1 X66.692 Y177.944 E51.52059
G1 X66.994 Y177.422 E51.55068
