;FLAVOR:Marlin
;TIME:6516
;Filament used: 5.41164m
;Layer height: 0.2
;MINX:13.078
;MINY:26.69
;MINZ:0.3
;MAXX:187.78
;MAXY:198.195
;MAXZ:1.1
;Generated with Cura_SteamEngine 4.5.0
M104 S200
M105
M109 S200
M82 ;absolute extrusion mode
G21 ;metric values
G90 ;absolute positioning
M82 ;set extruder to absolute mode
M106 ;start with the fan on for filament cooling
G28 X0 Y0 ;move X/Y to min endstops
G28 Z0 ;move Z to min endstops
G29 ;run auto bed leveling
G1 Z15.0 F9000 ;move the platform down 15mm
G92 E0 ;zero the extruded length
G1 F200 E10 ;extrude 10mm of feed stock
G92 E0 ;zero the extruded length again
G1 F9000
;Put printing message on LCD screen
M117 Printing...
G92 E0
G92 E0
G1 F2700 E-0.7
;LAYER_COUNT:5
;LAYER:0
M107
G0 F3600 X16.704 Y36.898 Z0.3
;TYPE:SKIRT
G1 F2700 E0
G1 F1500 X17.262 Y36.69 E0.02971
G1 X18.086 Y36.466 E0.07231
G1 X19.144 Y36.295 E0.12578
G1 X19.864 Y36.195 E0.16205
G1 X37.868 Y33.824 E1.06802
G1 X38.626 Y33.736 E1.1061
G1 X39.655 Y33.714 E1.15744
G1 X40.895 Y33.764 E1.21936
G1 X41.6 Y33.803 E1.25458
G1 X44.353 Y33.879 E1.39198
G1 X47.071 Y33.877 E1.52759
G1 X49.824 Y33.797 E1.66499
G1 X52.574 Y33.639 E1.80242
G1 X55.261 Y33.41 E1.93696
G1 X58.302 Y33.057 E2.08969
G1 X65.777 Y32.074 E2.46583
G1 X66.531 Y31.986 E2.5037
G1 X67.174 Y31.954 E2.53582
G1 X67.718 Y31.964 E2.56297
G1 X68.765 Y32.008 E2.61525
G1 X69.34 Y32.04 E2.64398
G1 X72.088 Y32.121 E2.78114
G1 X74.805 Y32.124 E2.91669
G1 X77.559 Y32.049 E3.05414
G1 X80.27 Y31.899 E3.1896
G1 X83.019 Y31.668 E3.32723
G1 X86.186 Y31.304 E3.48627
G1 X93.385 Y30.356 E3.84853
G1 X94.103 Y30.272 E3.8846
G1 X94.727 Y30.242 E3.91577
G1 X95.488 Y30.269 E3.95376
G1 X98.102 Y30.562 E4.08499
G1 X100.865 Y30.796 E4.22333
G1 X103.581 Y30.949 E4.35904
G1 X106.332 Y31.026 E4.49634
G1 X109.05 Y31.026 E4.63195
G1 X111.802 Y30.947 E4.7693
G1 X114.552 Y30.79 E4.90672
G1 X117.239 Y30.562 E5.04126
G1 X120.311 Y30.207 E5.19554
G1 X121.392 Y30.076 E5.24987
G1 X122.036 Y30.044 E5.28204
G1 X122.813 Y30.073 E5.32083
G1 X125.815 Y30.415 E5.47157
G1 X128.556 Y30.647 E5.6088
G1 X131.272 Y30.8 E5.74452
G1 X134.024 Y30.877 E5.88187
G1 X136.741 Y30.877 E6.01742
G1 X139.493 Y30.798 E6.15478
G1 X142.243 Y30.641 E6.2922
G1 X144.922 Y30.413 E6.42634
G1 X148.785 Y29.965 E6.62036
G1 X150.35 Y29.865 E6.69859
G1 X153.468 Y29.638 E6.85456
G1 X157.362 Y29.205 E7.05003
G1 X175.581 Y26.807 E7.96682
G1 X176.327 Y26.72 E8.00429
G1 X176.962 Y26.69 E8.03601
G1 X178.036 Y26.769 E8.08974
G1 X178.826 Y26.949 E8.13016
G1 X179.528 Y27.211 E8.16754
G1 X180.153 Y27.532 E8.20259
G1 X180.817 Y27.947 E8.24166
G1 X181.425 Y28.512 E8.28307
G1 X181.808 Y28.957 E8.31236
G1 X182.176 Y29.473 E8.34398
G1 X182.487 Y29.971 E8.37327
G1 X182.785 Y30.627 E8.40922
G1 X183.025 Y31.454 E8.45218
G1 X183.123 Y31.989 E8.47932
G1 X183.188 Y32.673 E8.51359
G1 X183.311 Y34.194 E8.58972
G1 X183.61 Y36.924 E8.72674
G1 X183.987 Y39.645 E8.86379
G1 X184.454 Y42.429 E9.00462
G1 X184.603 Y43.244 E9.04596
G1 X184.691 Y44.033 E9.08556
G1 X184.841 Y45.845 E9.17627
G1 X185.147 Y48.615 E9.31531
G1 X185.515 Y51.255 E9.44829
G1 X185.985 Y54.044 E9.5894
G1 X186.079 Y54.537 E9.61444
G1 X186.165 Y55.108 E9.64325
G1 X186.246 Y56.083 E9.69206
G1 X186.515 Y58.851 E9.83081
G1 X186.86 Y61.587 E9.96839
G1 X187.275 Y64.272 E10.10393
G1 X187.658 Y66.399 E10.21175
G1 X187.716 Y67.025 E10.24312
G1 X187.722 Y67.657 E10.27465
G1 X187.66 Y68.411 E10.3124
G1 X187.401 Y71.119 E10.44811
G1 X187.219 Y73.863 E10.58531
G1 X187.112 Y76.615 E10.72272
G1 X187.084 Y79.36 E10.85967
G1 X187.132 Y82.038 E10.9933
G1 X187.262 Y84.837 E11.13309
G1 X187.464 Y87.539 E11.26827
G1 X187.743 Y90.225 E11.403
G1 X187.774 Y90.749 E11.42919
G1 X187.78 Y126.547 E13.21516
G1 X187.77 Y127.245 E13.24998
G1 X187.624 Y128.849 E13.33034
G1 X187.517 Y129.824 E13.37927
G1 X187.298 Y132.565 E13.51646
G1 X187.156 Y135.313 E13.65374
G1 X187.092 Y138.031 E13.78938
G1 X187.106 Y140.785 E13.92678
G1 X187.196 Y143.5 E14.0623
G1 X187.365 Y146.242 E14.19936
G1 X187.695 Y149.766 E14.37594
G1 X187.722 Y150.741 E14.42461
G1 X187.678 Y151.282 E14.45169
G1 X187.591 Y151.802 E14.47799
G1 X187.265 Y153.607 E14.5695
G1 X186.857 Y156.275 E14.70415
G1 X186.522 Y158.989 E14.84058
G1 X186.324 Y161.234 E14.95302
G1 X186.19 Y162.646 E15.02378
G1 X185.987 Y163.823 E15.08337
G1 X185.53 Y166.554 E15.22151
G1 X185.152 Y169.282 E15.35891
G1 X184.852 Y172.012 E15.49593
G1 X184.728 Y173.426 E15.56675
G1 X184.674 Y174.102 E15.60058
G1 X184.559 Y174.859 E15.63878
G1 X184.234 Y176.644 E15.7293
G1 X183.828 Y179.298 E15.86325
G1 X183.479 Y182.105 E16.00437
G1 X183.223 Y184.784 E16.13864
G1 X183.169 Y185.519 E16.1754
G1 X183.082 Y186.133 E16.20634
G1 X182.89 Y186.928 E16.24714
G1 X182.647 Y187.567 E16.28125
G1 X182.252 Y188.307 E16.3231
G1 X181.825 Y188.906 E16.3598
G1 X181.439 Y189.333 E16.38852
G1 X181.193 Y189.589 E16.40623
G1 X180.662 Y190.029 E16.44064
G1 X179.89 Y190.499 E16.48573
G1 X179.33 Y190.755 E16.51645
G1 X178.411 Y191.036 E16.56439
G1 X177.72 Y191.155 E16.59937
G1 X175.977 Y191.181 E16.68634
G1 X174.786 Y191.169 E16.74576
G1 X172.104 Y191.219 E16.87959
G1 X169.32 Y191.349 E17.01864
G1 X166.609 Y191.552 E17.15427
G1 X163.87 Y191.837 E17.29166
G1 X161.17 Y192.194 E17.42753
G1 X158.493 Y192.625 E17.56281
G1 X155.752 Y193.147 E17.70201
G1 X153.097 Y193.732 E17.83765
G1 X150.736 Y194.316 E17.95899
G1 X150.127 Y194.406 E17.9897
G1 X149.279 Y194.424 E18.03202
G1 X145.299 Y194.011 E18.23165
G1 X142.563 Y193.793 E18.36858
G1 X139.812 Y193.651 E18.50601
G1 X137.095 Y193.588 E18.6416
G1 X134.341 Y193.603 E18.779
G1 X131.628 Y193.693 E18.91443
G1 X128.874 Y193.864 E19.05209
G1 X126.17 Y194.108 E19.18754
G1 X122.986 Y194.493 E19.34755
G1 X122.397 Y194.528 E19.37699
G1 X121.543 Y194.513 E19.4196
G1 X118.269 Y194.162 E19.58387
G1 X115.557 Y193.946 E19.71961
G1 X112.802 Y193.805 E19.85723
G1 X110.086 Y193.743 E19.99277
G1 X107.334 Y193.758 E20.13007
G1 X104.614 Y193.85 E20.26585
G1 X101.869 Y194.02 E20.40306
G1 X99.131 Y194.268 E20.54022
G1 X95.844 Y194.669 E20.70542
G1 X95.151 Y194.725 E20.74011
G1 X94.602 Y194.729 E20.7675
G1 X93.527 Y194.679 E20.82119
G1 X92.455 Y194.607 E20.87479
G1 X89.711 Y194.504 E21.01179
G1 X86.956 Y194.476 E21.14924
G1 X84.24 Y194.526 E21.28477
G1 X81.524 Y194.654 E21.42042
G1 X78.773 Y194.861 E21.55806
G1 X76.048 Y195.143 E21.69473
G1 X73.336 Y195.502 E21.83121
G1 X70.636 Y195.938 E21.96766
G1 X68.348 Y196.367 E22.0838
G1 X67.722 Y196.431 E22.1152
G1 X67.031 Y196.441 E22.14967
G1 X66.27 Y196.407 E22.18768
G1 X64.688 Y196.304 E22.26677
G1 X61.933 Y196.203 E22.40431
G1 X59.179 Y196.179 E22.54171
G1 X56.464 Y196.232 E22.67719
G1 X53.746 Y196.363 E22.81295
G1 X51.004 Y196.572 E22.95015
G1 X48.265 Y196.859 E23.08754
G1 X45.536 Y197.224 E23.22491
G1 X42.866 Y197.659 E23.35987
G1 X41.111 Y197.985 E23.44892
G1 X40.419 Y198.121 E23.48411
G1 X39.744 Y198.188 E23.51795
G1 X39.115 Y198.195 E23.54933
G1 X37.674 Y198.055 E23.62156
G1 X36.991 Y197.969 E23.65591
G1 X19.04 Y195.605 E24.55922
G1 X18.315 Y195.5 E24.59577
G1 X17.812 Y195.394 E24.62141
G1 X17.23 Y195.233 E24.65154
G1 X16.662 Y195.012 E24.68195
G1 X15.884 Y194.586 E24.7262
G1 X15.363 Y194.214 E24.75814
G1 X14.735 Y193.63 E24.80092
G1 X14.263 Y193.06 E24.83784
G1 X13.921 Y192.532 E24.86923
G1 X13.518 Y191.783 E24.91166
G1 X13.245 Y190.89 E24.95825
G1 X13.134 Y190.29 E24.98869
G1 X13.086 Y189.671 E25.01967
G1 X13.126 Y188.622 E25.07204
G1 X13.323 Y187.518 E25.12799
G1 X13.767 Y184.829 E25.26396
G1 X14.139 Y182.1 E25.40137
G1 X14.433 Y179.358 E25.53895
G1 X14.607 Y177.265 E25.64373
G1 X15.25 Y173.467 E25.83591
G1 X15.634 Y170.733 E25.97365
G1 X15.935 Y168.027 E26.10949
G1 X16.124 Y165.831 E26.21945
G1 X16.26 Y165.009 E26.26102
G1 X16.723 Y162.306 E26.39783
G1 X17.105 Y159.618 E26.53329
G1 X17.416 Y156.877 E26.67091
G1 X17.642 Y154.211 E26.8044
G1 X17.725 Y153.71 E26.82973
G1 X17.863 Y153.166 E26.85773
G1 X18.24 Y152.074 E26.91537
G1 X18.785 Y150.679 E26.99009
G1 X19.717 Y148.084 E27.12765
G1 X20.565 Y145.495 E27.26357
G1 X21.336 Y142.892 E27.39901
G1 X22.043 Y140.232 E27.53632
G1 X22.689 Y137.493 E27.67672
G1 X23.225 Y134.887 E27.80946
G1 X23.698 Y132.208 E27.94518
G1 X24.103 Y129.471 E28.08322
G1 X24.428 Y126.74 E28.22043
G1 X24.671 Y124.04 E28.35568
G1 X24.842 Y121.286 E28.49334
G1 X24.933 Y118.568 E28.62902
G1 X24.952 Y116.652 E28.72461
G1 X24.952 Y115.306 E28.79176
G1 X24.912 Y112.508 E28.93137
G1 X24.797 Y109.792 E29.06699
G1 X24.602 Y107.045 E29.20439
G1 X24.334 Y104.34 E29.34
G1 X23.986 Y101.616 E29.47701
G1 X23.561 Y98.916 E29.61337
G1 X23.058 Y96.207 E29.75083
G1 X22.488 Y93.56 E29.88592
G1 X21.841 Y90.92 E30.02152
G1 X21.104 Y88.24 E30.16019
G1 X20.301 Y85.617 E30.29705
G1 X19.431 Y83.039 E30.43279
G1 X18.387 Y80.219 E30.58282
G1 X18.082 Y79.434 E30.62483
G1 X17.812 Y78.539 E30.67147
G1 X17.711 Y78.036 E30.69707
G1 X17.652 Y77.538 E30.72209
G1 X17.389 Y74.658 E30.86637
G1 X17.068 Y71.962 E31.00182
G1 X16.666 Y69.254 E31.13841
G1 X16.215 Y66.722 E31.26672
G1 X16.117 Y65.834 E31.31129
G1 X15.861 Y63.067 E31.44992
G1 X15.53 Y60.328 E31.58757
G1 X15.121 Y57.599 E31.72524
G1 X14.646 Y54.939 E31.86004
G1 X14.288 Y51.14 E32.05042
G1 X13.958 Y48.445 E32.18588
G1 X13.547 Y45.727 E32.32302
G1 X13.29 Y44.25 E32.39781
G1 X13.155 Y43.504 E32.43564
G1 X13.095 Y42.93 E32.46443
G1 X13.078 Y42.282 E32.49677
G1 X13.148 Y41.546 E32.53365
G1 X13.291 Y40.878 E32.56774
G1 X13.52 Y40.115 E32.60748
G1 X13.933 Y39.334 E32.65156
G1 X14.301 Y38.805 E32.68371
G1 X14.751 Y38.28 E32.7182
G1 X15.444 Y37.612 E32.76622
G1 X16.175 Y37.153 E32.80929
G1 X16.704 Y36.898 E32.83859
G1 F2700 E32.13859
;MESH:Object 10(1)
G0 F3600 X17.125 Y39.524
G0 X17.767 Y40.634
G0 X24.002 Y41.18
G0 X32.811 Y88.508
G0 X32.869 Y88.427
;TYPE:WALL-INNER
G1 F2700 E32.83859
G1 F1500 X33.077 Y88.387 E32.84915
G1 X38.912 Y87.262 E33.14562
G1 X32.852 Y42.344 E35.40689
G1 X32.824 Y42.136 E35.41737
G1 X32.618 Y42.174 E35.42403
G1 X26.896 Y43.25 E35.7145
G1 X32.842 Y88.217 E37.97744
G1 X32.869 Y88.427 E37.98415
G0 F3600 X32.811 Y88.508
G0 X30.734 Y92.167
G0 X30.658 Y92.103
G1 F1500 X30.63 Y91.889 E37.99492
G1 X28.548 Y76.033 E38.79277
G1 X28.522 Y75.835 E38.80273
G1 X28.324 Y75.861 E38.80917
G1 X25.994 Y76.171 E38.92643
G1 X25.994 Y77.377 E38.9866
G1 X25.84 Y77.955 E39.01644
G1 X25.583 Y78.4 E39.04208
G1 X25.135 Y78.876 E39.07469
G1 X24.586 Y79.206 E39.10665
G1 X24.01 Y79.36 E39.1364
G1 X23.497 Y79.36 E39.16199
G1 X22.903 Y79.222 E39.19241
G1 X22.339 Y78.918 E39.22438
G1 X21.94 Y78.533 E39.25204
G1 X21.577 Y77.948 E39.28639
G1 X21.448 Y77.462 E39.31148
G1 X21.427 Y76.762 E39.34641
G1 X21.556 Y76.276 E39.3715
G1 X21.866 Y75.703 E39.404
G1 X22.248 Y75.305 E39.43153
G1 X22.76 Y74.986 E39.46162
G1 X23.456 Y74.777 E39.49788
G1 X28.3 Y74.139 E39.74163
G1 X27.033 Y64.492 E40.22706
G1 X27.007 Y64.294 E40.23702
G1 X26.809 Y64.32 E40.24345
G1 X24.475 Y64.63 E40.36092
G1 X24.475 Y65.79 E40.41879
G1 X24.327 Y66.378 E40.44904
G1 X24.059 Y66.864 E40.47673
G1 X23.647 Y67.305 E40.50684
G1 X23.099 Y67.645 E40.53902
G1 X22.574 Y67.796 E40.56627
G1 X21.966 Y67.816 E40.59662
G1 X21.345 Y67.67 E40.62845
G1 X20.822 Y67.381 E40.65826
G1 X20.357 Y66.93 E40.69058
G1 X20.059 Y66.415 E40.72026
G1 X19.928 Y65.923 E40.74566
G1 X19.907 Y65.311 E40.77621
G1 X20.066 Y64.641 E40.81057
G1 X20.361 Y64.13 E40.84
G1 X20.721 Y63.77 E40.8654
G1 X21.32 Y63.401 E40.9005
G1 X21.924 Y63.238 E40.93171
G1 X26.785 Y62.598 E41.17632
G1 X25.519 Y52.951 E41.66174
G1 X25.493 Y52.753 E41.6717
G1 X25.295 Y52.779 E41.67814
G1 X22.956 Y53.087 E41.79584
G1 X22.956 Y54.249 E41.85381
G1 X22.809 Y54.835 E41.88395
G1 X22.518 Y55.361 E41.91394
G1 X22.131 Y55.762 E41.94175
G1 X21.62 Y56.079 E41.97175
G1 X21.002 Y56.266 E42.00396
G1 X20.406 Y56.276 E42.0337
G1 X19.871 Y56.144 E42.06119
G1 X19.301 Y55.837 E42.09349
G1 X18.871 Y55.421 E42.12334
G1 X18.585 Y54.947 E42.15096
G1 X18.385 Y54.283 E42.18556
G1 X18.385 Y53.69 E42.21514
G1 X18.54 Y53.112 E42.245
G1 X18.798 Y52.667 E42.27066
G1 X19.276 Y52.16 E42.30542
G1 X19.71 Y51.908 E42.33046
G1 X20.419 Y51.695 E42.36739
G1 X25.27 Y51.056 E42.6115
G1 X24.004 Y41.409 E43.09692
G1 X23.978 Y41.211 E43.10688
G1 X23.78 Y41.237 E43.11332
G1 X21.436 Y41.546 E43.23127
G1 X21.436 Y42.664 E43.28705
G1 X21.299 Y43.257 E43.31741
G1 X20.995 Y43.824 E43.34951
G1 X20.612 Y44.221 E43.37703
G1 X20.098 Y44.54 E43.40721
G1 X19.528 Y44.714 E43.43694
G1 X18.882 Y44.734 E43.46919
G1 X18.349 Y44.602 E43.49658
G1 X17.782 Y44.297 E43.5287
G1 X17.381 Y43.911 E43.55647
G1 X17.041 Y43.363 E43.58865
G1 X16.889 Y42.833 E43.61615
G1 X16.869 Y42.229 E43.6463
G1 X17.027 Y41.56 E43.6806
G1 X17.278 Y41.124 E43.7057
G1 X17.755 Y40.619 E43.74035
G1 X18.192 Y40.366 E43.76555
G1 X18.806 Y40.18 E43.79755
G1 X20.141 Y39.992 E43.86482
G1 X39.034 Y37.504 E44.81553
G1 X39.586 Y37.504 E44.84307
G1 X40.18 Y37.642 E44.87349
G1 X40.784 Y37.967 E44.90771
G1 X41.139 Y38.322 E44.93276
G1 X41.483 Y38.877 E44.96533
G1 X41.635 Y39.408 E44.99289
G1 X41.655 Y40.059 E45.02538
G1 X41.513 Y40.631 E45.05479
G1 X41.241 Y41.121 E45.08275
G1 X40.799 Y41.593 E45.11501
G1 X40.328 Y41.876 E45.14242
G1 X39.709 Y42.063 E45.17468
G1 X39.154 Y42.073 E45.20238
G1 X38.528 Y41.926 E45.23446
G1 X37.968 Y41.616 E45.26639
G1 X37.576 Y41.223 E45.29408
G1 X37.289 Y40.746 E45.32186
G1 X36.917 Y39.507 E45.3864
G1 X34.723 Y39.797 E45.49681
G1 X35.991 Y49.444 E45.98224
G1 X36.017 Y49.642 E45.9922
G1 X36.215 Y49.616 E45.99864
G1 X40.553 Y49.045 E46.21693
G1 X41.105 Y49.045 E46.24447
G1 X41.785 Y49.206 E46.27933
G1 X42.297 Y49.501 E46.30881
G1 X42.659 Y49.863 E46.33435
G1 X43.003 Y50.418 E46.36693
G1 X43.155 Y50.948 E46.39443
G1 X43.175 Y51.555 E46.42473
G1 X43.03 Y52.176 E46.45655
G1 X42.761 Y52.661 E46.48422
G1 X42.351 Y53.1 E46.51419
G1 X41.803 Y53.44 E46.54636
G1 X41.274 Y53.592 E46.57382
G1 X40.668 Y53.612 E46.60407
G1 X40.047 Y53.467 E46.63589
G1 X39.524 Y53.178 E46.6657
G1 X39.122 Y52.79 E46.69357
G1 X38.762 Y52.204 E46.72788
G1 X38.451 Y51.047 E46.78765
G1 X36.238 Y51.339 E46.89902
G1 X37.506 Y60.985 E47.3844
G1 X37.532 Y61.183 E47.39436
G1 X37.73 Y61.157 E47.4008
G1 X42.072 Y60.585 E47.61929
G1 X42.623 Y60.585 E47.64678
G1 X43.304 Y60.746 E47.68169
G1 X43.737 Y60.997 E47.70666
G1 X44.244 Y61.474 E47.74139
G1 X44.499 Y61.915 E47.76681
G1 X44.674 Y62.493 E47.79694
G1 X44.694 Y63.141 E47.82928
G1 X44.563 Y63.673 E47.85661
G1 X44.258 Y64.24 E47.88873
G1 X43.873 Y64.64 E47.91643
G1 X43.362 Y64.957 E47.94643
G1 X42.744 Y65.144 E47.97865
G1 X42.194 Y65.155 E48.00609
G1 X41.602 Y65.018 E48.03641
G1 X41.044 Y64.718 E48.06801
G1 X40.644 Y64.332 E48.09575
G1 X40.28 Y63.742 E48.13033
G1 X39.969 Y62.586 E48.19006
G1 X37.753 Y62.88 E48.30158
G1 X39.021 Y72.526 E48.78696
G1 X39.047 Y72.724 E48.79693
G1 X39.245 Y72.698 E48.80336
G1 X43.592 Y72.126 E49.0221
G1 X44.235 Y72.126 E49.05418
G1 X44.725 Y72.257 E49.07949
G1 X45.342 Y72.59 E49.11447
G1 X45.696 Y72.944 E49.13944
G1 X46.018 Y73.462 E49.16987
G1 X46.205 Y74.08 E49.20208
G1 X46.215 Y74.629 E49.22948
G1 X46.079 Y75.221 E49.25978
G1 X45.8 Y75.743 E49.28931
G1 X45.328 Y76.244 E49.32365
G1 X44.81 Y76.543 E49.35349
G1 X44.279 Y76.685 E49.38091
G1 X43.624 Y76.696 E49.4136
G1 X43.135 Y76.565 E49.43885
G1 X42.524 Y76.236 E49.47348
G1 X42.132 Y75.843 E49.50117
G1 X41.845 Y75.366 E49.52894
G1 X41.476 Y74.129 E49.59334
G1 X39.268 Y74.421 E49.70446
G1 X41.885 Y94.353 E50.70741
G1 X45.11 Y95.689 E50.88156
G1 X45.584 Y96.053 E50.91138
G1 X45.948 Y96.527 E50.94119
G1 X46.147 Y97.008 E50.96716
G1 X46.264 Y97.73 E51.00365
G1 X46.264 Y134.186 E52.82245
G1 X46.193 Y134.737 E52.85017
G1 X45.98 Y135.302 E52.88029
G1 X45.576 Y135.862 E52.91474
G1 X45.172 Y136.171 E52.94012
G1 X44.795 Y136.349 E52.96092
G1 X41.885 Y137.555 E53.11807
G1 X39.294 Y157.291 E54.11115
G1 X39.268 Y157.489 E54.12112
G1 X39.466 Y157.514 E54.12753
G1 X41.491 Y157.78 E54.22943
G1 X41.801 Y156.615 E54.28957
G1 X42.056 Y156.174 E54.31499
G1 X42.508 Y155.693 E54.34792
G1 X42.975 Y155.412 E54.37511
G1 X43.641 Y155.212 E54.4098
G1 X44.232 Y155.212 E54.43929
G1 X44.772 Y155.356 E54.46717
G1 X45.338 Y155.671 E54.49949
G1 X45.729 Y156.062 E54.52707
G1 X46.019 Y156.545 E54.55518
