;FLAVOR:Marlin
;TIME:1767
;Filament used: 1.49028m
;Layer height: 0.2
;MINX:50.079
;MINY:28.37
;MINZ:0.3
;MAXX:127.168
;MAXY:194.355
;MAXZ:0.9
;Generated with Cura_SteamEngine 4.5.0
M104 S200
M105
M109 S200
M82 ;absolute extrusion mode
G21 ;metric values
G90 ;absolute positioning
M82 ;set extruder to absolute mode
M106 ;start with the fan on for filament cooling
G28 X0 Y0 ;move X/Y to min endstops
G28 Z0 ;move Z to min endstops
G29 ;run auto bed leveling
G1 Z15.0 F9000 ;move the platform down 15mm
G92 E0 ;zero the extruded length
G1 F200 E10 ;extrude 10mm of feed stock
G92 E0 ;zero the extruded length again
G1 F9000
;Put printing message on LCD screen
M117 Printing...
G92 E0
G92 E0
G1 F2700 E-0.7
;LAYER_COUNT:4
;LAYER:0
M107
G0 F3600 X51.041 Y33.819 Z0.3
;TYPE:SKIRT
G1 F2700 E0
G1 F1500 X51.422 Y33.304 E0.03196
G1 X51.788 Y32.902 E0.05908
G1 X52.457 Y32.264 E0.1052
G1 X53.401 Y31.689 E0.16035
G1 X53.857 Y31.471 E0.18557
G1 X54.707 Y31.213 E0.22988
G1 X56.067 Y30.971 E0.2988
G1 X57.075 Y30.83 E0.34958
G1 X74.902 Y28.482 E1.24665
G1 X75.603 Y28.4 E1.28186
G1 X76.106 Y28.37 E1.307
G1 X76.797 Y28.376 E1.34148
G1 X77.41 Y28.445 E1.37225
G1 X77.9 Y28.55 E1.39726
G1 X79.317 Y28.881 E1.46985
G1 X81.986 Y29.426 E1.60576
G1 X84.662 Y29.894 E1.74129
G1 X87.426 Y30.297 E1.88064
G1 X90.091 Y30.609 E2.01451
G1 X92.867 Y30.854 E2.15354
G1 X95.583 Y31.018 E2.28929
G1 X98.299 Y31.104 E2.42486
G1 X101.052 Y31.113 E2.56221
G1 X103.804 Y31.045 E2.69955
G1 X106.519 Y30.901 E2.83519
G1 X109.246 Y30.678 E2.9717
G1 X112.641 Y30.291 E3.14217
G1 X114.996 Y29.981 E3.26068
G1 X115.702 Y29.898 E3.29614
G1 X116.207 Y29.868 E3.32138
G1 X116.885 Y29.874 E3.35521
G1 X117.61 Y29.97 E3.39169
G1 X118.193 Y30.117 E3.42169
G1 X118.944 Y30.398 E3.46169
G1 X119.401 Y30.635 E3.48738
G1 X120.169 Y31.101 E3.53219
G1 X120.862 Y31.742 E3.57929
G1 X121.27 Y32.22 E3.61064
G1 X121.637 Y32.755 E3.64301
G1 X122.082 Y33.559 E3.68886
G1 X122.256 Y34.068 E3.71569
G1 X122.403 Y34.594 E3.74294
G1 X122.528 Y35.363 E3.78181
G1 X122.727 Y37.693 E3.89848
G1 X123.035 Y40.397 E4.03425
G1 X123.422 Y43.111 E4.17103
G1 X123.885 Y45.724 E4.30342
G1 X124.021 Y46.529 E4.34415
G1 X124.144 Y47.845 E4.41009
G1 X124.411 Y50.617 E4.54903
G1 X124.749 Y53.317 E4.68478
G1 X125.169 Y56.054 E4.82293
G1 X125.45 Y57.609 E4.90177
G1 X125.551 Y58.288 E4.93601
G1 X125.591 Y58.79 E4.96114
G1 X125.841 Y61.498 E5.09682
G1 X126.174 Y64.236 E5.23442
G1 X126.583 Y66.96 E5.37185
G1 X126.804 Y68.172 E5.43331
G1 X127.048 Y69.585 E5.50485
G1 X127.101 Y70.13 E5.53217
G1 X127.113 Y70.735 E5.56236
G1 X126.959 Y72.642 E5.65781
G1 X126.724 Y75.425 E5.79715
G1 X126.571 Y78.144 E5.93301
G1 X126.494 Y80.896 E6.07036
G1 X126.494 Y83.614 E6.20596
G1 X126.573 Y86.367 E6.34337
G1 X126.729 Y89.113 E6.48059
G1 X126.961 Y91.818 E6.61604
G1 X127.081 Y92.893 E6.67
G1 X127.142 Y93.521 E6.70148
G1 X127.167 Y94.378 E6.74425
G1 X127.168 Y129.725 E8.50772
G1 X127.158 Y130.423 E8.54255
G1 X127.012 Y132.027 E8.6229
G1 X126.905 Y133.002 E8.67184
G1 X126.686 Y135.743 E8.80902
G1 X126.544 Y138.491 E8.94631
G1 X126.48 Y141.209 E9.08195
G1 X126.494 Y143.963 E9.21934
G1 X126.584 Y146.678 E9.35487
G1 X126.754 Y149.427 E9.49228
G1 X127.01 Y152.106 E9.62655
G1 X127.082 Y152.92 E9.66731
G1 X127.111 Y153.883 E9.71538
G1 X127.063 Y154.463 E9.74442
G1 X126.598 Y157.106 E9.8783
G1 X126.19 Y159.864 E10.0174
G1 X125.873 Y162.529 E10.15129
G1 X125.579 Y165.796 E10.31494
G1 X125.322 Y167.33 E10.39254
G1 X124.814 Y170.431 E10.54931
G1 X124.456 Y173.154 E10.68633
G1 X124.053 Y177.339 E10.89609
G1 X123.555 Y180.217 E11.0418
G1 X123.153 Y182.942 E11.17923
G1 X122.83 Y185.665 E11.31603
G1 X122.68 Y187.456 E11.4057
G1 X122.538 Y188.906 E11.47838
G1 X122.429 Y189.515 E11.50925
G1 X122.283 Y190.093 E11.53899
G1 X122.034 Y190.752 E11.57414
G1 X121.796 Y191.218 E11.60024
G1 X121.574 Y191.601 E11.62233
G1 X121.227 Y192.07 E11.65144
G1 X120.602 Y192.745 E11.69733
G1 X120.033 Y193.218 E11.73425
G1 X119.331 Y193.648 E11.77532
G1 X118.75 Y193.918 E11.80728
G1 X117.831 Y194.207 E11.85534
G1 X117.337 Y194.311 E11.88053
G1 X116.821 Y194.347 E11.90633
G1 X116.279 Y194.355 E11.93338
G1 X115.056 Y194.246 E11.99464
G1 X113.86 Y194.098 E12.05476
G1 X103.301 Y192.707 E12.5861
G1 X100.577 Y192.388 E12.72293
G1 X97.865 Y192.147 E12.85877
G1 X95.114 Y191.98 E12.99627
G1 X92.4 Y191.894 E13.13174
G1 X89.647 Y191.883 E13.26909
G1 X86.895 Y191.951 E13.40643
G1 X84.213 Y192.094 E13.54042
G1 X81.438 Y192.319 E13.67932
G1 X78.71 Y192.619 E13.81624
G1 X77.571 Y192.773 E13.87358
G1 X76.965 Y192.836 E13.90398
G1 X76.178 Y192.856 E13.94326
G1 X74.955 Y192.747 E14.00451
G1 X73.772 Y192.601 E14.06398
G1 X56.048 Y190.268 E14.95586
G1 X55.312 Y190.16 E14.99298
G1 X54.691 Y190.023 E15.0247
G1 X53.684 Y189.68 E15.07778
G1 X52.923 Y189.27 E15.1209
G1 X52.392 Y188.894 E15.15336
G1 X52.005 Y188.556 E15.179
G1 X51.661 Y188.217 E15.20309
G1 X51.301 Y187.77 E15.23173
G1 X50.982 Y187.287 E15.26061
G1 X50.511 Y186.433 E15.30926
G1 X50.197 Y185.357 E15.36518
G1 X50.105 Y184.86 E15.3904
G1 X50.079 Y184.032 E15.43173
G1 X50.114 Y183.496 E15.45853
G1 X50.198 Y182.94 E15.48658
G1 X50.677 Y180.136 E15.6285
G1 X51.061 Y177.44 E15.76436
G1 X51.374 Y174.681 E15.90289
G1 X51.506 Y173.062 E15.98393
G1 X51.612 Y171.912 E16.04155
G1 X51.887 Y170.302 E16.12303
G1 X52.338 Y167.552 E16.26207
G1 X52.704 Y164.843 E16.39845
G1 X52.993 Y162.123 E16.53491
G1 X53.127 Y160.52 E16.61516
G1 X53.263 Y159.702 E16.65653
G1 X53.725 Y157 E16.79329
G1 X54.107 Y154.311 E16.9288
G1 X54.416 Y151.579 E17.06596
G1 X54.646 Y148.876 E17.20131
G1 X54.729 Y148.376 E17.22659
G1 X54.864 Y147.841 E17.25412
G1 X55.265 Y146.689 E17.31498
G1 X55.783 Y145.365 E17.38591
G1 X56.723 Y142.747 E17.52468
G1 X57.561 Y140.186 E17.65912
G1 X58.342 Y137.555 E17.79604
G1 X59.046 Y134.905 E17.93283
G1 X59.679 Y132.219 E18.07051
G1 X60.232 Y129.545 E18.20674
G1 X60.705 Y126.856 E18.34295
G1 X61.105 Y124.15 E18.47942
G1 X61.43 Y121.417 E18.61673
G1 X61.675 Y118.71 E18.75234
G1 X61.846 Y115.96 E18.8898
G1 X61.937 Y113.244 E19.02538
G1 X61.956 Y111.251 E19.12482
G1 X61.955 Y109.891 E19.19267
G1 X61.913 Y107.094 E19.33223
G1 X61.796 Y104.381 E19.4677
G1 X61.599 Y101.629 E19.60535
G1 X61.329 Y98.927 E19.74083
G1 X60.978 Y96.197 E19.87815
G1 X60.555 Y93.508 E20.01395
G1 X60.051 Y90.811 E20.15084
G1 X59.472 Y88.134 E20.28748
G1 X58.821 Y85.485 E20.42357
G1 X58.092 Y82.842 E20.56036
G1 X57.28 Y80.194 E20.69854
G1 X56.413 Y77.629 E20.83362
G1 X55.261 Y74.543 E20.99796
G1 X55.062 Y74.035 E21.02518
G1 X54.873 Y73.432 E21.0567
G1 X54.679 Y72.482 E21.10508
G1 X54.397 Y69.361 E21.26142
G1 X54.073 Y66.661 E21.39709
G1 X53.673 Y63.968 E21.53292
G1 X53.194 Y61.293 E21.6685
G1 X52.817 Y57.415 E21.86288
G1 X52.488 Y54.73 E21.99784
G1 X52.074 Y52 E22.1356
G1 X51.892 Y51.004 E22.18611
G1 X51.648 Y49.588 E22.2578
G1 X51.49 Y47.91 E22.34188
G1 X51.217 Y45.195 E22.47802
G1 X50.864 Y42.465 E22.61535
G1 X50.43 Y39.719 E22.75405
G1 X50.212 Y38.545 E22.81362
G1 X50.092 Y37.623 E22.86001
G1 X50.08 Y37.005 E22.89085
G1 X50.128 Y36.384 E22.92192
G1 X50.259 Y35.688 E22.95725
G1 X50.53 Y34.753 E23.00582
G1 X50.763 Y34.291 E23.03164
G1 X51.041 Y33.819 E23.05897
G1 F2700 E22.35897
;MESH:Surgical_Mask_Strap_updated.STL(7)
G0 F3600 X52.884 Y38.553
G0 X56.361 Y45.361
G0 X56.735 Y46.581
G0 X62.52 Y47.384
G0 X69.814 Y83.17
G0 X69.872 Y83.089
;TYPE:WALL-INNER
G1 F2700 E23.05897
G1 F1500 X70.08 Y83.049 E23.06953
G1 X75.916 Y81.924 E23.36605
G1 X69.855 Y37.006 E25.62733
G1 X69.827 Y36.798 E25.6378
G1 X69.621 Y36.836 E25.64446
G1 X63.899 Y37.912 E25.93494
G1 X69.845 Y82.879 E28.19788
G1 X69.872 Y83.089 E28.20459
G0 F3600 X69.814 Y83.17
G0 X67.738 Y86.825
G0 X67.662 Y86.762
G1 F1500 X67.635 Y86.549 E28.2153
G1 X65.553 Y70.695 E29.01305
G1 X65.527 Y70.497 E29.02301
G1 X65.329 Y70.523 E29.02945
G1 X62.997 Y70.83 E29.14679
G1 X62.997 Y72.039 E29.20711
G1 X62.844 Y72.614 E29.2368
G1 X62.574 Y73.082 E29.26375
G1 X62.517 Y73.163 E29.26869
G1 X62.156 Y73.524 E29.29416
G1 X61.587 Y73.867 E29.32731
G1 X61.014 Y74.021 E29.35691
G1 X60.41 Y74.021 E29.38705
G1 X59.891 Y73.881 E29.41386
G1 X59.802 Y73.849 E29.41858
G1 X59.356 Y73.592 E29.44426
G1 X58.939 Y73.194 E29.47302
G1 X58.843 Y73.068 E29.48092
G1 X58.583 Y72.618 E29.50685
G1 X58.447 Y72.104 E29.53338
G1 X58.428 Y71.964 E29.54043
G1 X58.428 Y71.433 E29.56692
G1 X58.566 Y70.916 E29.59362
G1 X58.599 Y70.825 E29.59845
G1 X58.854 Y70.382 E29.62395
G1 X59.311 Y69.907 E29.65683
G1 X59.763 Y69.646 E29.68287
G1 X59.91 Y69.585 E29.69081
G1 X60.446 Y69.441 E29.7185
G1 X65.303 Y68.8 E29.96292
G1 X64.038 Y59.154 E30.44828
G1 X64.012 Y58.956 E30.45824
G1 X63.814 Y58.982 E30.46468
G1 X61.478 Y59.289 E30.58222
G1 X61.478 Y60.445 E30.6399
G1 X61.335 Y61.029 E30.66989
G1 X61.018 Y61.603 E30.70261
G1 X60.644 Y61.977 E30.72899
G1 X60.568 Y62.041 E30.73395
G1 X60.124 Y62.297 E30.75952
G1 X59.491 Y62.48 E30.79239
G1 X58.958 Y62.48 E30.81899
G1 X58.858 Y62.472 E30.82399
G1 X58.363 Y62.339 E30.84956
G1 X57.834 Y62.048 E30.87968
G1 X57.36 Y61.591 E30.91253
G1 X57.064 Y61.078 E30.94208
G1 X56.908 Y60.497 E30.97209
G1 X56.908 Y59.972 E30.99829
G1 X56.928 Y59.815 E31.00618
G1 X57.063 Y59.312 E31.03217
G1 X57.364 Y58.793 E31.0621
G1 X57.734 Y58.422 E31.08824
G1 X57.861 Y58.324 E31.09624
G1 X58.312 Y58.065 E31.12219
G1 X58.928 Y57.9 E31.154
G1 X63.788 Y57.259 E31.39857
G1 X62.522 Y47.613 E31.88394
G1 X62.496 Y47.415 E31.8939
G1 X62.298 Y47.441 E31.90034
G1 X59.959 Y47.748 E32.01803
G1 X59.959 Y48.903 E32.07565
G1 X59.815 Y49.489 E32.10576
G1 X59.524 Y50.016 E32.13579
G1 X59.078 Y50.482 E32.16797
G1 X58.607 Y50.753 E32.19508
G1 X58.526 Y50.791 E32.19955
G1 X58.026 Y50.924 E32.22536
G1 X57.418 Y50.937 E32.2557
G1 X56.844 Y50.798 E32.28516
G1 X56.763 Y50.768 E32.28947
G1 X56.318 Y50.511 E32.31511
G1 X55.883 Y50.092 E32.34524
G1 X55.585 Y49.601 E32.3739
G1 X55.523 Y49.452 E32.38195
G1 X55.389 Y48.956 E32.40758
G1 X55.389 Y48.352 E32.43772
G1 X55.544 Y47.773 E32.46762
G1 X55.802 Y47.324 E32.49346
G1 X55.904 Y47.192 E32.50178
G1 X56.268 Y46.828 E32.52746
G1 X56.727 Y46.564 E32.55388
G1 X56.869 Y46.505 E32.56155
G1 X57.409 Y46.359 E32.58946
G1 X62.273 Y45.718 E32.83422
G1 X61.007 Y36.071 E33.31964
G1 X60.981 Y35.873 E33.3296
G1 X60.783 Y35.899 E33.33604
G1 X58.439 Y36.208 E33.45399
G1 X58.439 Y37.418 E33.51436
G1 X58.302 Y37.93 E33.5408
G1 X58.268 Y38.026 E33.54588
G1 X58.011 Y38.471 E33.57152
G1 X57.554 Y38.944 E33.60433
G1 X57.036 Y39.244 E33.6342
G1 X56.531 Y39.379 E33.66027
G1 X56.42 Y39.399 E33.6659
G1 X55.902 Y39.399 E33.69174
G1 X55.332 Y39.259 E33.72103
G1 X55.244 Y39.227 E33.7257
G1 X54.798 Y38.97 E33.75138
G1 X54.364 Y38.555 E33.78134
G1 X54.314 Y38.496 E33.7852
G1 X54.052 Y38.04 E33.81143
G1 X53.87 Y37.412 E33.84405
G1 X53.87 Y36.891 E33.87005
G1 X53.89 Y36.732 E33.87804
G1 X54.023 Y36.235 E33.90371
G1 X54.286 Y35.779 E33.92997
G1 X54.385 Y35.651 E33.93805
G1 X54.751 Y35.285 E33.96387
G1 X55.273 Y34.983 E33.99396
G1 X55.775 Y34.849 E34.01988
G1 X57.418 Y34.618 E34.10265
G1 X76.038 Y32.166 E35.03963
G1 X76.679 Y32.166 E35.07161
G1 X77.181 Y32.301 E35.09754
G1 X77.323 Y32.36 E35.10522
G1 X77.782 Y32.624 E35.13163
G1 X78.159 Y33.001 E35.15823
G1 X78.222 Y33.076 E35.16312
G1 X78.481 Y33.523 E35.18889
G1 X78.645 Y34.089 E35.21829
G1 X78.662 Y34.185 E35.22316
G1 X78.662 Y34.698 E35.24875
G1 X78.517 Y35.289 E35.27911
G1 X78.238 Y35.8 E35.30816
G1 X78.181 Y35.88 E35.31306
G1 X77.819 Y36.242 E35.3386
G1 X77.306 Y36.553 E35.36853
G1 X77.228 Y36.59 E35.37283
G1 X76.731 Y36.723 E35.3985
G1 X76.135 Y36.736 E35.42824
G1 X76.043 Y36.729 E35.43285
G1 X75.548 Y36.596 E35.45842
G1 X74.972 Y36.277 E35.49127
G1 X74.584 Y35.89 E35.51861
G1 X74.287 Y35.398 E35.54728
G1 X74.225 Y35.249 E35.55533
G1 X73.935 Y34.168 E35.61117
G1 X71.726 Y34.459 E35.72233
G1 X72.994 Y44.106 E36.20776
G1 X73.02 Y44.304 E36.21772
G1 X73.218 Y44.278 E36.22416
G1 X77.557 Y43.707 E36.4425
G1 X78.119 Y43.707 E36.47053
G1 X78.278 Y43.727 E36.47853
G1 X78.779 Y43.861 E36.5044
G1 X79.299 Y44.162 E36.53438
G1 X79.679 Y44.542 E36.56119
G1 X79.743 Y44.618 E36.56615
G1 X79.999 Y45.061 E36.59167
G1 X80.182 Y45.694 E36.62455
G1 X80.182 Y46.231 E36.65134
G1 X80.174 Y46.327 E36.65614
G1 X80.041 Y46.82 E36.68162
G1 X79.724 Y47.396 E36.71442
G1 X79.34 Y47.779 E36.74148
G1 X79.272 Y47.837 E36.74594
G1 X78.824 Y48.097 E36.77178
G1 X78.196 Y48.277 E36.80437
G1 X77.661 Y48.277 E36.83106
G1 X77.561 Y48.269 E36.83607
G1 X77.067 Y48.136 E36.86159
G1 X76.538 Y47.845 E36.89171
G1 X76.12 Y47.445 E36.92058
G1 X76.022 Y47.318 E36.92858
G1 X75.766 Y46.873 E36.95419
G1 X75.452 Y45.709 E37.01434
G1 X73.241 Y46.001 E37.12561
G1 X74.509 Y55.647 E37.61099
G1 X74.535 Y55.845 E37.62095
G1 X74.733 Y55.819 E37.62738
G1 X79.076 Y55.247 E37.84593
G1 X79.638 Y55.247 E37.87397
G1 X79.795 Y55.267 E37.88186
G1 X80.299 Y55.403 E37.90791
G1 X80.744 Y55.659 E37.93352
G1 X80.873 Y55.759 E37.94166
G1 X81.246 Y56.131 E37.96794
G1 X81.546 Y56.653 E37.99798
G1 X81.682 Y57.162 E38.02427
G1 X81.701 Y57.266 E38.02954
G1 X81.701 Y57.784 E38.05538
G1 X81.562 Y58.349 E38.08441
G1 X81.529 Y58.442 E38.08934
G1 X81.273 Y58.887 E38.11495
G1 X80.817 Y59.362 E38.1478
G1 X80.35 Y59.631 E38.17469
G1 X80.264 Y59.672 E38.17944
G1 X79.771 Y59.804 E38.2049
G1 X79.11 Y59.817 E38.23788
G1 X78.595 Y59.678 E38.2645
G1 X78.51 Y59.648 E38.26899
G1 X78.056 Y59.387 E38.29512
G1 X77.641 Y58.989 E38.32381
G1 X77.544 Y58.863 E38.33174
G1 X77.285 Y58.414 E38.3576
G1 X76.974 Y57.248 E38.41781
G1 X74.756 Y57.542 E38.52943
G1 X76.024 Y67.188 E39.01481
G1 X76.05 Y67.386 E39.02478
G1 X76.248 Y67.36 E39.03121
G1 X80.596 Y66.788 E39.25
G1 X81.237 Y66.788 E39.28198
G1 X81.739 Y66.923 E39.30792
G1 X81.881 Y66.982 E39.31559
G1 X82.34 Y67.246 E39.342
G1 X82.764 Y67.67 E39.37192
G1 X83.032 Y68.133 E39.39861
G1 X83.072 Y68.218 E39.4033
G1 X83.205 Y68.721 E39.42925
G1 X83.219 Y69.377 E39.46199
G1 X83.065 Y69.956 E39.49188
G1 X82.805 Y70.407 E39.51785
G1 X82.705 Y70.536 E39.52599
G1 X82.338 Y70.903 E39.55189
G1 X81.821 Y71.202 E39.58168
G1 X81.287 Y71.344 E39.60925
G1 X80.627 Y71.357 E39.64219
G1 X80.133 Y71.225 E39.6677
G1 X79.986 Y71.164 E39.67564
G1 X79.531 Y70.902 E39.70183
G1 X79.146 Y70.517 E39.72899
G1 X78.845 Y70.02 E39.75798
G1 X78.782 Y69.87 E39.7661
G1 X78.494 Y68.79 E39.82186
G1 X76.272 Y69.083 E39.93368
G1 X78.888 Y89.015 E40.93662
G1 X82.11 Y90.35 E41.11062
G1 X82.589 Y90.716 E41.14069
G1 X82.954 Y91.194 E41.1707
G1 X83.154 Y91.675 E41.19669
G1 X83.193 Y91.82 E41.20418
G1 X83.267 Y92.385 E41.23261
G1 X83.267 Y128.847 E43.0517
G1 X83.184 Y129.484 E43.08375
G1 X82.982 Y129.972 E43.1101
G1 X82.908 Y130.098 E43.11739
G1 X82.587 Y130.517 E43.14372
G1 X82.194 Y130.819 E43.16845
G1 X81.718 Y131.045 E43.19474
G1 X78.888 Y132.217 E43.34756
G1 X76.298 Y151.953 E44.34063
G1 X76.272 Y152.151 E44.3506
G1 X76.47 Y152.176 E44.35701
G1 X78.494 Y152.442 E44.45886
G1 X78.804 Y151.277 E44.519
G1 X79.073 Y150.812 E44.54581
G1 X79.129 Y150.732 E44.55068
G1 X79.494 Y150.367 E44.57643
G1 X79.984 Y150.071 E44.60499
G1 X80.135 Y150.009 E44.61313
G1 X80.634 Y149.874 E44.63892
G1 X81.237 Y149.874 E44.66901
G1 X81.765 Y150.016 E44.69629
G1 X82.341 Y150.333 E44.72909
G1 X82.726 Y150.718 E44.75625
G1 X83.037 Y151.231 E44.78618
G1 X83.074 Y151.31 E44.79053
G1 X83.206 Y151.803 E44.816
G1 X83.219 Y152.402 E44.84589
G1 X83.212 Y152.495 E44.85054
G1 X83.079 Y152.989 E44.87606
G1 X82.787 Y153.521 E44.90634
G1 X82.337 Y153.988 E44.93869
G1 X81.813 Y154.289 E44.96884
G1 X81.306 Y154.425 E44.99503
G1 X81.202 Y154.444 E45.00031
G1 X80.654 Y154.444 E45.02765
G1 X80.015 Y154.368 E45.05975
G1 X76.248 Y153.872 E45.24931
G1 X76.05 Y153.846 E45.25927
G1 X76.024 Y154.044 E45.26571
G1 X74.756 Y163.691 E45.75114
G1 X76.974 Y163.983 E45.86275
G1 X77.265 Y162.896 E45.91889
G1 X77.324 Y162.754 E45.92656
G1 X77.587 Y162.297 E45.95287
G1 X77.975 Y161.909 E45.98024
G1 X78.541 Y161.569 E46.01318
G1 X79.035 Y161.436 E46.03871
G1 X79.195 Y161.415 E46.04676
G1 X79.717 Y161.415 E46.0728
G1 X80.22 Y161.55 E46.09878
G1 X80.363 Y161.609 E46.1065
G1 X80.818 Y161.871 E46.13269
G1 X81.246 Y162.298 E46.16286
G1 X81.546 Y162.82 E46.19289
