;FLAVOR:Marlin
;TIME:13734
;Filament used: 10.2635m
;Layer height: 0.3
;MINX:64.118
;MINY:38.11
;MINZ:0.3
;MAXX:236.133
;MAXY:271.593
;MAXZ:1.8
;Generated with Cura_SteamEngine 4.5.0
M140 S55
M105
M190 S55
M104 S220
M105
M109 S220
M82 ;absolute extrusion mode
G28 ;Home
G1 Z15.0 F2000 ;Move the platform
G92 E0
G92 E0
G1 F1500 E-6.5
;LAYER_COUNT:6
;LAYER:0
M107
M204 S1000
G0 F6000 X66.978 Y45.592 Z0.3
;TYPE:SKIRT
G1 F1500 E0
G1 F1200 X67.424 Y45.01 E0.03658
G1 X68.019 Y44.404 E0.07895
G1 X68.607 Y43.952 E0.11595
G1 X69.3 Y43.537 E0.15625
G1 X69.753 Y43.312 E0.18149
G1 X70.07 Y43.204 E0.19819
G1 X70.77 Y43.007 E0.23447
G1 X70.976 Y42.957 E0.24505
G1 X71.485 Y42.876 E0.27076
G1 X72.079 Y42.83 E0.30049
G1 X74.841 Y42.577 E0.43886
G1 X77.536 Y42.254 E0.57428
G1 X80.25 Y41.85 E0.71117
G1 X82.982 Y41.363 E0.84962
G1 X83.27 Y41.325 E0.86411
G1 X84.136 Y41.251 E0.90748
G1 X86.869 Y40.996 E1.04442
G1 X89.634 Y40.66 E1.18338
G1 X92.293 Y40.26 E1.31753
G1 X94.871 Y39.798 E1.44819
G1 X95.162 Y39.76 E1.46284
G1 X96.03 Y39.686 E1.5063
G1 X98.762 Y39.431 E1.64319
G1 X101.527 Y39.095 E1.78215
G1 X104.199 Y38.693 E1.91696
G1 X106.82 Y38.225 E2.04979
G1 X107.321 Y38.176 E2.0749
G1 X107.948 Y38.165 E2.10619
G1 X108.231 Y38.169 E2.12031
G1 X108.498 Y38.184 E2.13365
G1 X109.539 Y38.286 E2.18584
G1 X110.268 Y38.368 E2.22244
G1 X112.947 Y38.596 E2.35657
G1 X115.694 Y38.752 E2.49384
G1 X118.447 Y38.83 E2.63125
G1 X121.164 Y38.83 E2.7668
G1 X123.92 Y38.752 E2.90435
G1 X126.662 Y38.598 E3.04136
G1 X129.358 Y38.368 E3.17636
G1 X131.444 Y38.139 E3.28105
G1 X131.682 Y38.122 E3.29296
G1 X132.052 Y38.111 E3.31143
G1 X168.76 Y38.11 E5.14279
G1 X169.504 Y38.12 E5.17992
G1 X169.769 Y38.135 E5.19316
G1 X170.691 Y38.225 E5.23938
G1 X172.409 Y38.412 E5.32559
G1 X175.143 Y38.629 E5.46242
G1 X177.897 Y38.77 E5.6
G1 X180.615 Y38.833 E5.73564
G1 X183.368 Y38.818 E5.87299
G1 X186.084 Y38.727 E6.00857
G1 X188.829 Y38.557 E6.14578
G1 X191.711 Y38.295 E6.29015
G1 X192.667 Y38.194 E6.33811
G1 X192.944 Y38.177 E6.35196
G1 X193.65 Y38.165 E6.38719
G1 X193.895 Y38.169 E6.39941
G1 X194.426 Y38.222 E6.42603
G1 X195.155 Y38.357 E6.46302
G1 X197.858 Y38.82 E6.59984
G1 X200.545 Y39.202 E6.73524
G1 X203.316 Y39.516 E6.87437
G1 X206.011 Y39.746 E7.00932
G1 X206.324 Y39.788 E7.02507
G1 X207.035 Y39.92 E7.06115
G1 X209.756 Y40.386 E7.19888
G1 X212.443 Y40.768 E7.33428
G1 X215.214 Y41.082 E7.47341
G1 X217.909 Y41.312 E7.60835
G1 X218.223 Y41.354 E7.62416
G1 X218.929 Y41.485 E7.65998
G1 X221.65 Y41.952 E7.79772
G1 X224.34 Y42.335 E7.93328
G1 X227.074 Y42.646 E8.07056
G1 X229.777 Y42.875 E8.20589
G1 X230.282 Y42.96 E8.23144
G1 X230.899 Y43.115 E8.26318
G1 X231.133 Y43.181 E8.27531
G1 X231.809 Y43.459 E8.31178
G1 X232.44 Y43.809 E8.34778
G1 X232.594 Y43.901 E8.35673
G1 X233.176 Y44.346 E8.39328
G1 X233.624 Y44.781 E8.42443
G1 X233.792 Y44.953 E8.43643
G1 X234.247 Y45.542 E8.47356
G1 X234.608 Y46.149 E8.50879
G1 X234.702 Y46.319 E8.51848
G1 X234.976 Y46.979 E8.55414
G1 X235.146 Y47.571 E8.58486
G1 X235.21 Y47.822 E8.59779
G1 X235.308 Y48.556 E8.63473
G1 X235.319 Y49.218 E8.66776
G1 X235.316 Y49.455 E8.67959
G1 X235.302 Y49.717 E8.69268
G1 X235.245 Y50.245 E8.71917
G1 X234.4 Y56.671 E9.04253
G1 X234.083 Y59.368 E9.17801
G1 X233.838 Y62.141 E9.31689
G1 X233.674 Y64.855 E9.45254
G1 X233.588 Y67.573 E9.58821
G1 X233.578 Y70.326 E9.72556
G1 X233.645 Y73.04 E9.861
G1 X233.788 Y75.484 E9.98314
G1 X233.835 Y76.451 E10.03144
G1 X233.848 Y77.29 E10.07331
G1 X233.842 Y77.615 E10.08952
G1 X233.796 Y78.698 E10.1436
G1 X233.701 Y81.623 E10.28961
G1 X233.694 Y84.369 E10.42661
G1 X233.764 Y87.118 E10.5638
G1 X233.911 Y89.832 E10.6994
G1 X234.138 Y92.581 E10.83702
G1 X234.438 Y95.285 E10.97275
G1 X234.817 Y98 E11.10951
G1 X235.269 Y100.677 E11.24496
G1 X235.817 Y103.368 E11.38197
G1 X235.952 Y104.065 E11.41739
G1 X236.01 Y104.618 E11.44513
G1 X236.02 Y105.3 E11.47916
G1 X236.017 Y105.527 E11.49048
G1 X236.003 Y105.788 E11.50352
G1 X235.971 Y106.111 E11.51972
G1 X235.898 Y106.715 E11.55007
G1 X235.67 Y108.706 E11.65005
G1 X235.429 Y111.419 E11.78594
G1 X235.262 Y114.168 E11.92334
G1 X235.175 Y116.886 E12.05901
G1 X235.164 Y119.639 E12.19636
G1 X235.231 Y122.388 E12.33355
G1 X235.373 Y125.063 E12.46719
G1 X235.597 Y127.832 E12.60579
G1 X236.026 Y131.535 E12.79177
G1 X236.046 Y131.816 E12.80582
G1 X236.066 Y132.642 E12.84704
G1 X236.063 Y132.869 E12.85837
G1 X236.049 Y133.13 E12.87141
G1 X235.992 Y133.66 E12.898
G1 X235.373 Y138.362 E13.13461
G1 X235.052 Y141.091 E13.2717
G1 X234.812 Y143.797 E13.40723
G1 X234.645 Y146.55 E13.54483
G1 X234.559 Y149.263 E13.68025
G1 X234.548 Y152.016 E13.8176
G1 X234.616 Y154.751 E13.95409
G1 X234.843 Y158.614 E14.14715
G1 X234.905 Y159.397 E14.18634
G1 X234.914 Y159.592 E14.19608
G1 X234.927 Y160.356 E14.2342
G1 X234.924 Y160.583 E14.24552
G1 X234.91 Y160.844 E14.25856
G1 X234.85 Y161.392 E14.28607
G1 X234.067 Y167.344 E14.58557
G1 X233.746 Y170.073 E14.72266
G1 X233.506 Y172.781 E14.85829
G1 X233.339 Y175.531 E14.99574
G1 X233.253 Y178.246 E15.13126
G1 X233.242 Y180.999 E15.26861
G1 X233.31 Y183.737 E15.40525
G1 X233.42 Y185.602 E15.49846
G1 X233.486 Y186.948 E15.56569
G1 X233.499 Y187.79 E15.60771
G1 X233.493 Y188.092 E15.62278
G1 X233.483 Y188.339 E15.63511
G1 X233.403 Y191.131 E15.77446
G1 X233.403 Y193.849 E15.91006
G1 X233.48 Y196.601 E16.04741
G1 X233.633 Y199.317 E16.18313
G1 X233.865 Y202.06 E16.32047
G1 X234.175 Y204.795 E16.45779
G1 X234.557 Y207.484 E16.59329
G1 X235.017 Y210.174 E16.72945
G1 X235.552 Y212.844 E16.8653
G1 X235.762 Y213.735 E16.91097
G1 X236.052 Y215.091 E16.98015
G1 X236.123 Y215.705 E17.01099
G1 X236.133 Y216.379 E17.04462
G1 X236.13 Y216.606 E17.05594
G1 X236.116 Y216.867 E17.06898
G1 X236.08 Y217.223 E17.08684
G1 X235.129 Y224.459 E17.45095
G1 X234.808 Y227.189 E17.58808
G1 X234.568 Y229.899 E17.72382
G1 X234.402 Y232.643 E17.86096
G1 X234.316 Y235.361 E17.99663
G1 X234.305 Y238.114 E18.13398
G1 X234.373 Y240.855 E18.27077
G1 X234.475 Y242.59 E18.35748
G1 X234.539 Y243.935 E18.42466
G1 X234.552 Y244.774 E18.46652
G1 X234.549 Y245.001 E18.47785
G1 X234.535 Y245.262 E18.49089
G1 X234.503 Y245.586 E18.50713
G1 X234.471 Y245.85 E18.5204
G1 X231.881 Y265.523 E19.51036
G1 X231.771 Y266.273 E19.54818
G1 X231.722 Y266.535 E19.56148
G1 X231.63 Y266.916 E19.58103
G1 X231.495 Y267.399 E19.60605
G1 X231.212 Y268.09 E19.6433
G1 X230.878 Y268.689 E19.67752
G1 X230.775 Y268.862 E19.68756
G1 X230.327 Y269.447 E19.72433
G1 X229.898 Y269.891 E19.75513
G1 X229.734 Y270.051 E19.76656
G1 X229.143 Y270.505 E19.80374
G1 X228.45 Y270.92 E19.84404
G1 X227.997 Y271.145 E19.86927
G1 X227.68 Y271.253 E19.88598
G1 X226.841 Y271.485 E19.92941
G1 X226.108 Y271.584 E19.96631
G1 X225.495 Y271.593 E19.9969
G1 X225.212 Y271.589 E20.01102
G1 X224.679 Y271.536 E20.03774
G1 X223.976 Y271.407 E20.0734
G1 X221.235 Y270.938 E20.21214
G1 X218.534 Y270.553 E20.34825
G1 X215.776 Y270.241 E20.48673
G1 X213.091 Y270.012 E20.62117
G1 X212.78 Y269.97 E20.63682
G1 X212.089 Y269.842 E20.67188
G1 X209.343 Y269.372 E20.81087
G1 X206.656 Y268.99 E20.94628
G1 X203.885 Y268.676 E21.08541
G1 X201.19 Y268.446 E21.22035
G1 X200.876 Y268.404 E21.23616
G1 X200.17 Y268.273 E21.27198
G1 X197.449 Y267.806 E21.40972
G1 X194.759 Y267.423 E21.54527
G1 X192.024 Y267.112 E21.6826
G1 X189.313 Y266.882 E21.81834
G1 X188.809 Y266.798 E21.84383
G1 X188.192 Y266.642 E21.87558
G1 X187.947 Y266.573 E21.88828
G1 X187.683 Y266.487 E21.90213
G1 X187.323 Y266.351 E21.92133
G1 X185.289 Y265.552 E22.03036
G1 X182.707 Y264.623 E22.16726
G1 X180.145 Y263.781 E22.3018
G1 X177.487 Y262.99 E22.44016
G1 X174.866 Y262.291 E22.57549
G1 X172.171 Y261.652 E22.71367
G1 X169.496 Y261.097 E22.84997
G1 X166.814 Y260.621 E22.98587
G1 X164.096 Y260.217 E23.12296
G1 X161.405 Y259.893 E23.25819
G1 X158.663 Y259.643 E23.39555
G1 X155.914 Y259.47 E23.53297
G1 X153.196 Y259.376 E23.66865
G1 X151.215 Y259.355 E23.76749
G1 X148.614 Y259.354 E23.89726
G1 X145.817 Y259.393 E24.03681
G1 X143.099 Y259.507 E24.17253
G1 X140.385 Y259.699 E24.30827
G1 X137.616 Y259.972 E24.44709
G1 X134.948 Y260.312 E24.58127
G1 X132.199 Y260.742 E24.72009
G1 X129.524 Y261.239 E24.85583
G1 X126.851 Y261.814 E24.99224
G1 X124.244 Y262.451 E25.12613
G1 X121.538 Y263.195 E25.26614
G1 X118.923 Y263.994 E25.40256
G1 X116.36 Y264.858 E25.53749
G1 X113.757 Y265.817 E25.67589
G1 X113.305 Y265.999 E25.7002
G1 X112.154 Y266.445 E25.76179
G1 X111.883 Y266.536 E25.77605
G1 X111.167 Y266.74 E25.81319
G1 X110.966 Y266.791 E25.82354
G1 X110.427 Y266.879 E25.85078
G1 X109.84 Y266.925 E25.88016
G1 X107.051 Y267.179 E26.01988
G1 X104.349 Y267.504 E26.15565
G1 X101.644 Y267.906 E26.29209
G1 X98.932 Y268.39 E26.42953
G1 X98.653 Y268.427 E26.44357
G1 X97.789 Y268.504 E26.48685
G1 X95.04 Y268.76 E26.62459
G1 X92.304 Y269.092 E26.76209
G1 X89.58 Y269.501 E26.89951
G1 X87.046 Y269.955 E27.02795
G1 X86.766 Y269.992 E27.04204
G1 X85.914 Y270.068 E27.08471
G1 X83.176 Y270.322 E27.2219
G1 X80.438 Y270.653 E27.35949
G1 X77.714 Y271.061 E27.49691
G1 X75.076 Y271.533 E27.63061
G1 X74.57 Y271.582 E27.65597
G1 X73.894 Y271.593 E27.6897
G1 X73.665 Y271.589 E27.70113
G1 X72.949 Y271.495 E27.73716
G1 X72.341 Y271.342 E27.76844
G1 X72.107 Y271.276 E27.78057
G1 X71.43 Y270.998 E27.81708
G1 X70.796 Y270.646 E27.85326
G1 X70.65 Y270.559 E27.86174
G1 X70.065 Y270.111 E27.8985
G1 X69.61 Y269.67 E27.93011
G1 X69.438 Y269.493 E27.94242
G1 X68.992 Y268.914 E27.97889
G1 X68.658 Y268.356 E28.01133
G1 X68.546 Y268.155 E28.02281
G1 X68.267 Y267.485 E28.05902
G1 X68.073 Y266.805 E28.0943
G1 X68.019 Y266.589 E28.10541
G1 X67.964 Y266.324 E28.11891
G1 X67.916 Y266.025 E28.13402
G1 X67.873 Y265.72 E28.14938
G1 X65.292 Y246.112 E29.13607
G1 X65.201 Y245.343 E29.1747
G1 X65.181 Y245.077 E29.18801
G1 X65.171 Y244.687 E29.20747
G1 X65.179 Y244.148 E29.23437
G1 X65.232 Y243.614 E29.26114
G1 X65.458 Y242.39 E29.32324
G1 X65.92 Y239.689 E29.45995
G1 X66.304 Y236.993 E29.59581
G1 X66.615 Y234.256 E29.73324
G1 X66.847 Y231.518 E29.87033
G1 X67.001 Y228.799 E30.0062
G1 X67.078 Y226.05 E30.1434
G1 X67.078 Y223.332 E30.279
G1 X66.999 Y220.575 E30.4166
G1 X66.844 Y217.836 E30.55347
G1 X66.786 Y217.096 E30.5905
G1 X66.762 Y216.681 E30.61124
G1 X66.752 Y216.29 E30.63076
G1 X66.756 Y216.027 E30.64388
G1 X66.756 Y213.303 E30.77978
G1 X66.678 Y210.55 E30.91718
G1 X66.524 Y207.832 E31.053
G1 X66.292 Y205.09 E31.19029
G1 X65.937 Y202.025 E31.34422
G1 X64.239 Y189.125 E31.99336
G1 X64.148 Y188.357 E32.03194
G1 X64.128 Y188.09 E32.0453
G1 X64.118 Y187.698 E32.06486
G1 X64.126 Y187.16 E32.09171
G1 X64.178 Y186.636 E32.11798
G1 X64.234 Y186.326 E32.1337
G1 X64.705 Y183.58 E32.27269
G1 X65.088 Y180.89 E32.40825
G1 X65.404 Y178.108 E32.54794
G1 X65.63 Y175.444 E32.68132
G1 X65.786 Y172.697 E32.81859
G1 X65.864 Y169.944 E32.956
G1 X65.864 Y167.227 E33.09155
G1 X65.786 Y164.474 E33.22895
G1 X65.631 Y161.745 E33.36532
G1 X65.582 Y161.116 E33.3968
G1 X65.555 Y160.641 E33.42053
G1 X65.546 Y160.268 E33.43915
G1 X65.554 Y159.729 E33.46604
G1 X65.592 Y159.284 E33.48832
G1 X65.697 Y158.609 E33.5224
G1 X65.963 Y157.054 E33.60111
G1 X66.343 Y154.369 E33.7364
G1 X66.654 Y151.626 E33.87413
G1 X66.885 Y148.887 E34.01126
G1 X67.037 Y146.171 E34.14697
G1 X67.114 Y143.419 E34.28433
G1 X67.112 Y140.7 E34.41998
G1 X67.033 Y137.944 E34.55753
G1 X66.874 Y135.175 E34.6959
G1 X66.694 Y132.927 E34.80842
G1 X66.685 Y132.555 E34.82698
G1 X66.693 Y132.015 E34.85393
G1 X66.717 Y131.671 E34.87113
G1 X66.765 Y131.281 E34.89073
G1 X67.073 Y128.576 E35.02656
G1 X67.308 Y125.807 E35.1652
G1 X67.462 Y123.09 E35.30097
G1 X67.54 Y120.337 E35.43837
G1 X67.54 Y117.619 E35.57397
G1 X67.462 Y114.867 E35.71133
G1 X67.306 Y112.117 E35.84875
G1 X67.077 Y109.425 E35.98354
G1 X66.668 Y105.859 E36.16261
G1 X66.649 Y105.603 E36.17542
G1 X66.639 Y105.213 E36.19488
G1 X66.656 Y104.03 E36.25391
G1 X66.7 Y102.494 E36.33057
G1 X66.702 Y99.776 E36.46617
G1 X66.625 Y97.026 E36.60342
G1 X66.472 Y94.307 E36.73929
G1 X66.24 Y91.561 E36.87678
G1 X65.882 Y88.451 E37.03296
G1 X64.582 Y78.579 E37.52973
G1 X64.497 Y77.852 E37.56624
G1 X64.477 Y77.59 E37.57935
G1 X64.467 Y77.201 E37.59877
G1 X64.475 Y76.663 E37.62561
G1 X64.528 Y76.129 E37.65238
G1 X64.657 Y75.431 E37.6878
G1 X65.122 Y72.72 E37.82502
G1 X65.507 Y70.009 E37.96163
G1 X65.816 Y67.298 E38.09776
G1 X66.046 Y64.589 E38.2334
G1 X66.202 Y61.842 E38.37067
G1 X66.28 Y59.09 E38.50802
G1 X66.28 Y56.372 E38.64362
G1 X66.202 Y53.62 E38.78098
G1 X66.047 Y50.886 E38.9176
G1 X65.965 Y49.85 E38.96944
G1 X65.938 Y49.127 E39.00554
G1 X65.946 Y48.617 E39.03099
G1 X66.042 Y47.891 E39.06752
G1 X66.205 Y47.244 E39.10081
G1 X66.263 Y47.039 E39.11144
G1 X66.54 Y46.365 E39.14779
G1 X66.853 Y45.801 E39.17997
G1 X66.978 Y45.592 E39.19212
G1 F1500 E32.69212
;MESH:10x_CR-10_Strap.3mf(8)
G0 F6000 X83.529 Y43.827
G0 X84.487 Y43.827
G0 X85.412 Y44.076
G0 X86.242 Y44.554
G0 X86.992 Y45.358
G0 X87.398 Y46.061
G0 X87.646 Y46.987
G0 X87.646 Y47.944
G0 X87.493 Y48.518
G0 X133.07 Y55.021
G0 X131.679 Y54.591
G0 X132.186 Y55.929
G0 X132.575 Y56.32
G0 X133.082 Y56.537
G0 X168.046 Y56.716
;TYPE:WALL-INNER
G1 F1500 E39.19212
G1 F1200 X168.101 Y56.723 E39.19489
G1 X168.277 Y56.723 E39.20367
G1 X168.477 Y56.703 E39.2137
G1 X168.68 Y56.653 E39.22413
G1 X168.896 Y56.569 E39.23569
G1 X169.053 Y56.48 E39.2447
G1 X169.217 Y56.364 E39.25472
G1 X169.367 Y56.223 E39.26499
G1 X169.497 Y56.067 E39.27512
G1 X169.607 Y55.892 E39.28543
G1 X169.694 Y55.708 E39.29559
G1 X169.755 Y55.512 E39.30583
G1 X169.798 Y55.28 E39.3176
G1 X169.801 Y55.1 E39.32658
G1 X169.791 Y54.904 E39.33637
G1 X169.741 Y54.67 E39.34831
G1 X169.695 Y54.549 E39.35477
G1 X166.822 Y46.493 E39.78148
G1 X166.731 Y46.312 E39.79158
G1 X166.619 Y46.144 E39.80166
G1 X166.485 Y45.989 E39.81188
G1 X166.33 Y45.853 E39.82217
G1 X166.16 Y45.736 E39.83246
G1 X165.975 Y45.644 E39.84277
G1 X165.785 Y45.577 E39.85282
G1 X165.549 Y45.525 E39.86488
G1 X165.308 Y45.518 E39.87691
G1 X136.368 Y45.518 E41.32073
G1 X136.246 Y45.511 E41.32683
G1 X136.047 Y45.523 E41.33677
G1 X135.871 Y45.557 E41.34572
G1 X135.677 Y45.617 E41.35585
G1 X135.464 Y45.716 E41.36756
G1 X135.313 Y45.816 E41.3766
G1 X135.159 Y45.94 E41.38646
G1 X135.019 Y46.09 E41.3967
G1 X134.897 Y46.256 E41.40698
G1 X134.799 Y46.439 E41.41734
G1 X134.733 Y46.608 E41.42639
G1 X131.861 Y54.646 E41.85223
G1 X131.811 Y54.841 E41.86228
G1 X131.788 Y55.042 E41.87237
G1 X131.787 Y55.248 E41.88265
G1 X131.821 Y55.48 E41.89435
G1 X131.873 Y55.658 E41.9036
G1 X131.951 Y55.842 E41.91357
G1 X132.052 Y56.018 E41.92369
G1 X132.178 Y56.183 E41.93405
G1 X132.324 Y56.329 E41.94435
G1 X132.484 Y56.453 E41.95445
G1 X132.661 Y56.559 E41.96474
G1 X132.853 Y56.64 E41.97514
G1 X133.048 Y56.694 E41.98523
G1 X133.248 Y56.724 E41.99532
G1 X133.45 Y56.73 E42.00541
G1 X133.558 Y56.719 E42.01082
G1 X168.046 Y56.716 E43.73144
G0 F6000 X168.073 Y56.316
;TYPE:WALL-OUTER
G1 F1200 X168.127 Y56.323 E43.73415
G1 X168.257 Y56.323 E43.74064
G1 X168.409 Y56.308 E43.74826
G1 X168.559 Y56.271 E43.75597
G1 X168.724 Y56.207 E43.7648
G1 X168.838 Y56.142 E43.77134
G1 X168.963 Y56.054 E43.77897
G1 X169.075 Y55.948 E43.78666
G1 X169.173 Y55.831 E43.79428
G1 X169.255 Y55.7 E43.80199
G1 X169.32 Y55.562 E43.8096
G1 X169.366 Y55.415 E43.81728
G1 X169.399 Y55.24 E43.82617
G1 X169.401 Y55.108 E43.83275
G1 X169.393 Y54.957 E43.8403
G1 X169.356 Y54.783 E43.84917
G1 X169.321 Y54.691 E43.85408
G1 X166.454 Y46.651 E44.27994
G1 X166.385 Y46.514 E44.28759
G1 X166.3 Y46.387 E44.29522
G1 X166.2 Y46.271 E44.30286
G1 X166.084 Y46.169 E44.31056
G1 X165.957 Y46.082 E44.31824
G1 X165.818 Y46.013 E44.32599
G1 X165.675 Y45.962 E44.33356
G1 X165.5 Y45.924 E44.34249
G1 X165.302 Y45.918 E44.35238
G1 X136.366 Y45.918 E45.796
G1 X136.248 Y45.912 E45.8019
G1 X136.097 Y45.921 E45.80944
G1 X135.968 Y45.946 E45.816
G1 X135.821 Y45.991 E45.82367
G1 X135.66 Y46.066 E45.83253
G1 X135.55 Y46.139 E45.83911
G1 X135.432 Y46.234 E45.84667
G1 X135.327 Y46.346 E45.85433
G1 X135.236 Y46.47 E45.86201
G1 X135.163 Y46.606 E45.86971
G1 X135.108 Y46.748 E45.8773
G1 X132.244 Y54.764 E46.30198
G1 X132.205 Y54.914 E46.30971
G1 X132.188 Y55.066 E46.31735
